;FLAVOR:Marlin
;TIME:7367
;Filament used: 3.67361m
;Layer height: 0.16
;MINX:100.67
;MINY:44.479
;MINZ:0.2
;MAXX:184.376
;MAXY:133.017
;MAXZ:10.92
;Generated with Cura_SteamEngine 4.5.0
M140 S110
M105
M190 S110
M104 S250
M105
M109 S250
M82 ;absolute extrusion mode
; Ender 3 Custom Start G-code
G92 E0 ; Reset Extruder
G28 ; Home all axes
G1 Z2.0 F3000 ; Move Z Axis up little to prevent scratching of Heat Bed
G1 X0.1 Y20 Z0.3 F5000.0 ; Move to start position
G1 X0.1 Y200.0 Z0.3 F1500.0 E15 ; Draw the first line
G1 X0.4 Y200.0 Z0.3 F5000.0 ; Move to side a little
G1 X0.4 Y20 Z0.3 F1500.0 E30 ; Draw the second line
G92 E0 ; Reset Extruder
G1 Z2.0 F3000 ; Move Z Axis up little to prevent scratching of Heat Bed
G1 X5 Y20 Z0.3 F5000.0 ; Move over to prevent blob squish
G92 E0
G92 E0
G1 F2700 E-5
;LAYER_COUNT:68
;LAYER:0
M107
G0 F6000 X103.166 Y46.777 Z0.2
;TYPE:SKIRT
G1 F2700 E0
G1 F1200 X103.359 Y46.404 E0.01397
G1 X103.652 Y46.04 E0.02951
G1 X103.769 Y45.923 E0.03501
G1 X104.093 Y45.657 E0.04896
G1 X104.46 Y45.456 E0.06287
G1 X104.86 Y45.329 E0.07683
G1 X105.325 Y45.279 E0.09239
G1 X143.665 Y45.279 E1.36758
G1 X144.082 Y45.319 E1.38151
G1 X144.484 Y45.437 E1.39545
G1 X144.856 Y45.63 E1.40939
G1 X145.221 Y45.923 E1.42495
G1 X145.338 Y46.04 E1.43046
G1 X145.582 Y46.338 E1.44327
G1 X145.693 Y46.227 E1.44849
G1 X146.017 Y45.961 E1.46243
G1 X146.384 Y45.76 E1.47635
G1 X146.784 Y45.633 E1.49031
G1 X147.056 Y45.503 E1.50033
G1 X147.455 Y45.373 E1.51429
G1 X147.936 Y45.32 E1.53039
G1 X149.03 Y45.32 E1.56677
G1 X149.447 Y45.36 E1.58071
G1 X149.849 Y45.478 E1.59464
G1 X150.221 Y45.671 E1.60858
G1 X150.586 Y45.964 E1.62415
G1 X150.703 Y46.081 E1.62965
G1 X150.969 Y46.405 E1.64359
G1 X151.17 Y46.772 E1.65751
G1 X151.297 Y47.172 E1.67147
G1 X151.347 Y47.637 E1.68703
G1 X151.347 Y48.92 E1.7297
G1 X173.93 Y48.92 E2.48081
G1 X173.93 Y47.637 E2.52348
G1 X173.97 Y47.22 E2.53742
G1 X174.088 Y46.818 E2.55135
G1 X174.281 Y46.446 E2.56529
G1 X174.574 Y46.081 E2.58086
G1 X174.691 Y45.964 E2.58636
G1 X175.015 Y45.698 E2.6003
G1 X175.382 Y45.497 E2.61422
G1 X175.782 Y45.37 E2.62818
G1 X176.247 Y45.32 E2.64374
G1 X177.28 Y45.32 E2.67809
G1 X177.697 Y45.36 E2.69203
G1 X178.099 Y45.478 E2.70596
G1 X178.34 Y45.614 E2.71516
G1 X178.456 Y45.625 E2.71904
G1 X178.858 Y45.743 E2.73298
G1 X179.23 Y45.936 E2.74691
G1 X179.595 Y46.229 E2.76248
G1 X179.711 Y46.345 E2.76794
G1 X179.977 Y46.669 E2.78188
G1 X180.178 Y47.036 E2.7958
G1 X180.305 Y47.436 E2.80976
G1 X180.355 Y47.901 E2.82531
G1 X180.355 Y50.32 E2.90577
G1 X180.315 Y50.737 E2.9197
G1 X180.224 Y51.046 E2.93041
G1 X180.232 Y51.11 E2.93256
G1 X180.349 Y77.393 E3.80674
G1 X180.311 Y77.811 E3.8207
G1 X180.194 Y78.213 E3.83463
G1 X180.004 Y78.586 E3.84855
G1 X179.705 Y78.959 E3.86445
G1 X179.588 Y79.076 E3.86996
G1 X179.264 Y79.342 E3.8839
G1 X178.897 Y79.543 E3.89782
G1 X178.497 Y79.67 E3.91177
G1 X178.032 Y79.72 E3.92733
G1 X147.272 Y79.72 E4.95041
G1 X146.855 Y79.68 E4.96434
G1 X146.453 Y79.562 E4.97828
G1 X146.081 Y79.369 E4.99222
G1 X145.744 Y79.102 E5.00652
G1 X145.627 Y78.989 E5.01193
G1 X145.354 Y78.671 E5.02587
G1 X145.147 Y78.307 E5.0398
G1 X145.013 Y77.91 E5.05373
G1 X144.956 Y77.459 E5.06885
G1 X144.934 Y76.525 E5.09993
G1 X144.934 Y76.271 E5.10837
G1 X144.53 Y76.502 E5.12385
G1 X144.137 Y76.627 E5.13757
G1 X144.266 Y77.004 E5.15082
G1 X144.327 Y77.512 E5.16784
G1 X144.336 Y81.558 E5.30241
G1 X144.428 Y81.508 E5.30589
G1 X144.828 Y81.381 E5.31985
G1 X145.293 Y81.331 E5.33541
G1 X146.559 Y81.331 E5.37751
G1 X146.976 Y81.371 E5.39145
G1 X147.378 Y81.489 E5.40538
G1 X147.524 Y81.565 E5.41086
G1 X159.824 Y81.565 E5.81995
G1 X159.928 Y81.508 E5.8239
G1 X160.328 Y81.381 E5.83786
G1 X160.793 Y81.331 E5.85341
G1 X162.059 Y81.331 E5.89552
G1 X162.476 Y81.371 E5.90945
G1 X162.878 Y81.489 E5.92339
G1 X163.25 Y81.682 E5.93733
G1 X163.465 Y81.855 E5.94651
G1 X163.609 Y81.776 E5.95197
G1 X164.009 Y81.649 E5.96593
G1 X164.474 Y81.599 E5.98148
G1 X165.74 Y81.599 E6.02359
G1 X166.157 Y81.639 E6.03752
G1 X166.559 Y81.757 E6.05146
G1 X166.705 Y81.833 E6.05693
G1 X179.005 Y81.833 E6.46603
G1 X179.109 Y81.776 E6.46998
G1 X179.509 Y81.649 E6.48393
G1 X179.974 Y81.599 E6.49949
G1 X181.24 Y81.599 E6.5416
G1 X181.657 Y81.639 E6.55553
G1 X182.059 Y81.757 E6.56946
G1 X182.431 Y81.95 E6.5834
G1 X182.796 Y82.243 E6.59897
G1 X182.913 Y82.36 E6.60447
G1 X183.179 Y82.684 E6.61842
G1 X183.38 Y83.051 E6.63233
G1 X183.507 Y83.451 E6.64629
G1 X183.557 Y83.916 E6.66185
G1 X183.557 Y86.658 E6.75305
G1 X183.517 Y87.075 E6.76698
G1 X183.399 Y87.477 E6.78092
G1 X183.206 Y87.849 E6.79485
G1 X182.913 Y88.214 E6.81042
G1 X182.796 Y88.331 E6.81592
G1 X182.472 Y88.597 E6.82987
G1 X182.105 Y88.798 E6.84378
G1 X181.705 Y88.925 E6.85774
G1 X181.242 Y88.975 E6.87323
G1 X179.976 Y88.976 E6.91534
G1 X179.559 Y88.936 E6.92927
G1 X179.156 Y88.818 E6.94324
G1 X178.784 Y88.626 E6.95716
G1 X178.75 Y88.599 E6.95861
G1 X166.97 Y88.598 E7.35041
G1 X166.605 Y88.798 E7.36425
G1 X166.205 Y88.925 E7.37821
G1 X165.742 Y88.975 E7.3937
G1 X164.476 Y88.976 E7.43581
G1 X164.059 Y88.936 E7.44974
G1 X163.656 Y88.818 E7.46371
G1 X163.284 Y88.626 E7.47763
G1 X163.067 Y88.452 E7.48688
G1 X162.924 Y88.53 E7.4923
G1 X162.524 Y88.657 E7.50626
G1 X162.061 Y88.707 E7.52175
G1 X160.795 Y88.708 E7.56386
G1 X160.378 Y88.668 E7.57779
G1 X159.975 Y88.55 E7.59176
G1 X159.603 Y88.358 E7.60568
G1 X159.569 Y88.331 E7.60712
G1 X147.789 Y88.33 E7.99893
G1 X147.424 Y88.53 E8.01277
G1 X147.024 Y88.657 E8.02673
G1 X146.561 Y88.707 E8.04222
G1 X145.295 Y88.708 E8.08433
G1 X144.878 Y88.668 E8.09826
G1 X144.475 Y88.55 E8.11223
G1 X144.352 Y88.486 E8.11684
G1 X144.358 Y91.302 E8.2105
G1 X144.744 Y91.179 E8.22397
G1 X145.209 Y91.129 E8.23953
G1 X146.475 Y91.129 E8.28164
G1 X146.892 Y91.169 E8.29557
G1 X147.294 Y91.287 E8.3095
G1 X147.442 Y91.364 E8.31505
G1 X159.738 Y91.364 E8.72402
G1 X159.844 Y91.306 E8.72804
G1 X160.244 Y91.179 E8.742
G1 X160.709 Y91.129 E8.75755
G1 X161.975 Y91.129 E8.79966
G1 X162.392 Y91.169 E8.81359
G1 X162.794 Y91.287 E8.82753
G1 X163.166 Y91.48 E8.84146
G1 X163.466 Y91.721 E8.85426
G1 X163.628 Y91.632 E8.86041
G1 X164.028 Y91.505 E8.87437
G1 X164.491 Y91.455 E8.88986
G1 X165.757 Y91.454 E8.93197
G1 X166.174 Y91.494 E8.9459
G1 X166.577 Y91.612 E8.95987
G1 X166.949 Y91.804 E8.97379
G1 X166.983 Y91.831 E8.97523
G1 X178.763 Y91.832 E9.36704
G1 X179.128 Y91.632 E9.38088
G1 X179.528 Y91.505 E9.39484
G1 X179.991 Y91.455 E9.41033
G1 X181.257 Y91.454 E9.45244
G1 X181.674 Y91.494 E9.46637
G1 X182.077 Y91.612 E9.48034
G1 X182.449 Y91.804 E9.49426
G1 X182.815 Y92.098 E9.50987
G1 X182.932 Y92.215 E9.51538
G1 X183.198 Y92.539 E9.52932
G1 X183.399 Y92.906 E9.54324
G1 X183.526 Y93.306 E9.5572
G1 X183.576 Y93.771 E9.57275
G1 X183.576 Y96.514 E9.66398
G1 X183.536 Y96.931 E9.67792
G1 X183.418 Y97.333 E9.69185
G1 X183.225 Y97.705 E9.70579
G1 X182.932 Y98.07 E9.72136
G1 X182.815 Y98.187 E9.72686
G1 X182.491 Y98.453 E9.7408
G1 X182.124 Y98.654 E9.75472
G1 X181.724 Y98.781 E9.76868
G1 X181.259 Y98.831 E9.78423
G1 X179.993 Y98.831 E9.82634
G1 X179.576 Y98.791 E9.84027
G1 X179.174 Y98.673 E9.85421
G1 X179.028 Y98.597 E9.85968
G1 X166.728 Y98.597 E10.26878
G1 X166.624 Y98.654 E10.27273
G1 X166.224 Y98.781 E10.28669
G1 X165.759 Y98.831 E10.30224
G1 X164.493 Y98.831 E10.34435
G1 X164.076 Y98.791 E10.35828
G1 X163.674 Y98.673 E10.37222
G1 X163.302 Y98.48 E10.38616
G1 X163.003 Y98.24 E10.39891
G1 X162.84 Y98.329 E10.40508
G1 X162.44 Y98.456 E10.41904
G1 X161.977 Y98.506 E10.43453
G1 X160.711 Y98.507 E10.47664
G1 X160.294 Y98.467 E10.49057
G1 X159.891 Y98.349 E10.50454
G1 X159.519 Y98.157 E10.51846
G1 X159.485 Y98.13 E10.51991
G1 X147.705 Y98.129 E10.91171
G1 X147.34 Y98.329 E10.92555
G1 X146.94 Y98.456 E10.93951
G1 X146.477 Y98.506 E10.955
G1 X145.211 Y98.507 E10.99711
G1 X144.794 Y98.467 E11.01104
G1 X144.391 Y98.349 E11.02501
G1 X144.384 Y102.961 E11.1784
G1 X144.762 Y102.841 E11.1916
G1 X145.227 Y102.791 E11.20715
G1 X172.993 Y102.791 E12.13065
G1 X173.41 Y102.831 E12.14458
G1 X173.812 Y102.949 E12.15852
G1 X174.184 Y103.142 E12.17246
G1 X174.549 Y103.435 E12.18803
G1 X174.666 Y103.552 E12.19353
G1 X174.932 Y103.876 E12.20747
G1 X175.133 Y104.243 E12.22139
G1 X175.26 Y104.643 E12.23535
G1 X175.31 Y105.108 E12.2509
G1 X175.311 Y126.874 E12.97484
G1 X175.271 Y127.291 E12.98878
G1 X175.316 Y127.791 E13.00547
G1 X175.316 Y129.635 E13.06681
G1 X175.276 Y130.052 E13.08074
G1 X175.158 Y130.454 E13.09467
G1 X174.965 Y130.826 E13.10861
G1 X174.672 Y131.191 E13.12418
G1 X174.316 Y131.547 E13.14092
G1 X173.992 Y131.813 E13.15487
G1 X173.625 Y132.014 E13.16878
G1 X173.225 Y132.141 E13.18274
G1 X172.76 Y132.191 E13.1983
G1 X170.223 Y132.191 E13.28268
G1 X169.806 Y132.151 E13.29661
G1 X169.404 Y132.033 E13.31055
G1 X169.032 Y131.84 E13.32449
G1 X168.667 Y131.547 E13.34005
G1 X168.55 Y131.43 E13.34556
G1 X168.284 Y131.106 E13.3595
G1 X168.083 Y130.739 E13.37342
G1 X167.956 Y130.339 E13.38738
G1 X167.906 Y129.874 E13.40293
G1 X167.906 Y129.191 E13.42565
G1 X149.019 Y129.191 E14.05383
G1 X149.019 Y129.874 E14.07655
G1 X148.979 Y130.291 E14.09048
G1 X148.861 Y130.693 E14.10442
G1 X148.668 Y131.065 E14.11835
G1 X148.375 Y131.43 E14.13392
G1 X148.258 Y131.547 E14.13943
G1 X147.934 Y131.813 E14.15337
G1 X147.567 Y132.014 E14.16729
G1 X147.167 Y132.141 E14.18124
G1 X146.702 Y132.191 E14.1968
G1 X144.692 Y132.191 E14.26365
G1 X144.275 Y132.151 E14.27759
G1 X143.873 Y132.033 E14.29152
G1 X143.501 Y131.84 E14.30546
G1 X143.429 Y131.782 E14.30853
G1 X143.359 Y131.839 E14.31154
G1 X142.992 Y132.04 E14.32545
G1 X142.592 Y132.167 E14.33941
G1 X142.127 Y132.217 E14.35497
G1 X103.787 Y132.217 E15.63016
G1 X103.37 Y132.177 E15.64409
G1 X102.968 Y132.059 E15.65803
G1 X102.596 Y131.866 E15.67197
G1 X102.231 Y131.573 E15.68753
G1 X102.114 Y131.456 E15.69304
G1 X101.848 Y131.132 E15.70698
G1 X101.647 Y130.765 E15.7209
G1 X101.52 Y130.365 E15.73486
G1 X101.47 Y129.9 E15.75041
G1 X101.47 Y77.634 E17.48879
G1 X101.51 Y77.217 E17.50272
G1 X101.628 Y76.815 E17.51665
G1 X101.821 Y76.443 E17.53059
G1 X102.114 Y76.078 E17.54616
G1 X102.231 Y75.961 E17.55166
G1 X102.555 Y75.695 E17.56561
G1 X102.922 Y75.494 E17.57952
G1 X103.27 Y75.384 E17.59166
G1 X103.184 Y75.227 E17.59762
G1 X103.057 Y74.827 E17.61158
G1 X103.007 Y74.362 E17.62713
G1 X103.008 Y47.596 E18.51737
G1 X103.048 Y47.179 E18.5313
G1 X103.166 Y46.777 E18.54524
G0 F6000 X102.766 Y46.702
G1 F1200 X102.96 Y46.29 E18.56039
G1 X103.37 Y45.758 E18.58272
G1 X103.487 Y45.641 E18.58823
G1 X103.836 Y45.348 E18.60338
G1 X104.231 Y45.121 E18.61854
G1 X104.659 Y44.966 E18.63368
G1 X105.325 Y44.879 E18.65602
G1 X143.665 Y44.879 E19.93121
G1 X144.119 Y44.919 E19.94637
G1 X144.559 Y45.037 E19.96152
G1 X144.971 Y45.231 E19.97667
G1 X145.503 Y45.641 E19.99901
G1 X145.62 Y45.758 E20.00451
G1 X145.76 Y45.652 E20.01035
G1 X146.155 Y45.425 E20.0255
G1 X146.583 Y45.27 E20.04064
G1 X146.667 Y45.259 E20.04346
G1 X146.753 Y45.205 E20.04684
G1 X147.175 Y45.034 E20.06198
G1 X147.621 Y44.939 E20.07715
G1 X147.936 Y44.92 E20.08764
G1 X149.03 Y44.92 E20.12403
G1 X149.484 Y44.96 E20.13919
G1 X149.924 Y45.078 E20.15434
G1 X150.336 Y45.272 E20.16949
G1 X150.868 Y45.682 E20.19183
G1 X150.985 Y45.799 E20.19733
G1 X151.278 Y46.148 E20.21249
G1 X151.505 Y46.543 E20.22764
G1 X151.66 Y46.971 E20.24278
G1 X151.747 Y47.637 E20.26512
G1 X151.747 Y48.52 E20.29449
G1 X173.53 Y48.52 E21.01899
G1 X173.53 Y47.637 E21.04836
G1 X173.57 Y47.183 E21.06352
G1 X173.688 Y46.743 E21.07867
G1 X173.882 Y46.331 E21.09382
G1 X174.292 Y45.799 E21.11616
G1 X174.409 Y45.682 E21.12166
G1 X174.758 Y45.389 E21.13682
G1 X175.153 Y45.162 E21.15197
G1 X175.581 Y45.007 E21.16711
G1 X176.247 Y44.92 E21.18945
G1 X177.28 Y44.92 E21.22381
G1 X177.734 Y44.96 E21.23897
G1 X178.174 Y45.078 E21.25412
G1 X178.485 Y45.224 E21.26554
G1 X178.933 Y45.343 E21.28096
G1 X179.345 Y45.537 E21.29611
G1 X179.877 Y45.947 E21.31845
G1 X179.993 Y46.063 E21.3239
G1 X180.286 Y46.412 E21.33906
G1 X180.513 Y46.807 E21.35421
G1 X180.668 Y47.235 E21.36935
G1 X180.755 Y47.901 E21.39169
G1 X180.755 Y50.32 E21.47215
G1 X180.715 Y50.774 E21.48731
G1 X180.63 Y51.089 E21.49816
G1 X180.749 Y77.391 E22.37298
G1 X180.711 Y77.845 E22.38813
G1 X180.594 Y78.286 E22.4033
G1 X180.403 Y78.699 E22.41844
G1 X180.142 Y79.073 E22.43361
G1 X179.987 Y79.241 E22.44121
G1 X179.87 Y79.358 E22.44671
G1 X179.521 Y79.651 E22.46187
G1 X179.126 Y79.878 E22.47702
G1 X178.698 Y80.033 E22.49216
G1 X178.032 Y80.12 E22.5145
G1 X147.272 Y80.12 E23.53758
G1 X146.818 Y80.08 E23.55274
G1 X146.378 Y79.962 E23.56789
G1 X145.966 Y79.768 E23.58304
G1 X145.466 Y79.39 E23.60389
G1 X145.349 Y79.277 E23.6093
G1 X145.05 Y78.933 E23.62446
G1 X144.816 Y78.542 E23.63961
G1 X144.729 Y78.313 E23.64776
G1 X144.735 Y81.004 E23.73726
G1 X145.293 Y80.931 E23.75598
G1 X146.559 Y80.931 E23.79809
G1 X147.013 Y80.971 E23.81325
G1 X147.453 Y81.089 E23.8284
G1 X147.614 Y81.165 E23.83432
G1 X159.721 Y81.165 E24.237
G1 X160.127 Y81.018 E24.25136
G1 X160.793 Y80.931 E24.2737
G1 X162.059 Y80.931 E24.31581
G1 X162.513 Y80.971 E24.33097
G1 X162.953 Y81.089 E24.34612
G1 X163.365 Y81.283 E24.36126
G1 X163.509 Y81.394 E24.36731
G1 X163.808 Y81.286 E24.37789
G1 X164.474 Y81.199 E24.40023
G1 X165.74 Y81.199 E24.44233
G1 X166.194 Y81.239 E24.45749
G1 X166.634 Y81.357 E24.47264
G1 X166.795 Y81.433 E24.47856
G1 X178.902 Y81.433 E24.88124
G1 X179.308 Y81.286 E24.89561
G1 X179.974 Y81.199 E24.91795
G1 X181.24 Y81.199 E24.96005
G1 X181.694 Y81.239 E24.97521
G1 X182.134 Y81.357 E24.99036
G1 X182.546 Y81.551 E25.00551
G1 X183.078 Y81.961 E25.02785
G1 X183.195 Y82.078 E25.03335
G1 X183.488 Y82.427 E25.04851
G1 X183.715 Y82.822 E25.06366
G1 X183.87 Y83.25 E25.0788
G1 X183.957 Y83.916 E25.10114
G1 X183.957 Y86.658 E25.19234
G1 X183.917 Y87.112 E25.2075
G1 X183.799 Y87.552 E25.22265
G1 X183.605 Y87.964 E25.2378
G1 X183.195 Y88.496 E25.26014
G1 X183.078 Y88.613 E25.26564
G1 X182.729 Y88.906 E25.2808
G1 X182.334 Y89.133 E25.29595
G1 X181.906 Y89.288 E25.31109
G1 X181.242 Y89.375 E25.33336
G1 X179.976 Y89.376 E25.37547
G1 X179.522 Y89.336 E25.39063
G1 X179.082 Y89.218 E25.40578
G1 X178.669 Y89.025 E25.42094
G1 X178.635 Y88.999 E25.42237
G1 X167.069 Y88.998 E25.80705
G1 X166.834 Y89.133 E25.81607
G1 X166.406 Y89.288 E25.83121
G1 X165.742 Y89.375 E25.85348
G1 X164.476 Y89.376 E25.89559
G1 X164.022 Y89.336 E25.91075
G1 X163.582 Y89.218 E25.9259
G1 X163.169 Y89.025 E25.94106
G1 X163.023 Y88.912 E25.9472
G1 X162.725 Y89.02 E25.95774
G1 X162.061 Y89.107 E25.98002
G1 X160.795 Y89.108 E26.02212
G1 X160.341 Y89.068 E26.03728
G1 X159.901 Y88.95 E26.05243
G1 X159.488 Y88.757 E26.0676
G1 X159.454 Y88.731 E26.06902
G1 X147.888 Y88.73 E26.45371
G1 X147.653 Y88.865 E26.46272
G1 X147.225 Y89.02 E26.47786
G1 X146.561 Y89.107 E26.50013
G1 X145.295 Y89.108 E26.54224
G1 X144.841 Y89.068 E26.5574
G1 X144.753 Y89.044 E26.56043
G1 X144.757 Y90.788 E26.61844
G1 X145.209 Y90.729 E26.6336
G1 X146.475 Y90.729 E26.67571
G1 X146.929 Y90.769 E26.69087
G1 X147.369 Y90.887 E26.70602
G1 X147.533 Y90.964 E26.71204
G1 X159.634 Y90.964 E27.11452
G1 X160.043 Y90.816 E27.12899
G1 X160.709 Y90.729 E27.15133
G1 X161.975 Y90.729 E27.19344
G1 X162.429 Y90.769 E27.2086
G1 X162.869 Y90.887 E27.22375
G1 X163.281 Y91.081 E27.23889
G1 X163.509 Y91.257 E27.24847
G1 X163.827 Y91.142 E27.25972
G1 X164.491 Y91.055 E27.28199
G1 X165.757 Y91.054 E27.3241
G1 X166.211 Y91.094 E27.33926
G1 X166.651 Y91.212 E27.35441
G1 X167.064 Y91.405 E27.36957
G1 X167.098 Y91.431 E27.371
G1 X178.664 Y91.432 E27.75568
G1 X178.899 Y91.297 E27.7647
G1 X179.327 Y91.142 E27.77984
G1 X179.991 Y91.055 E27.80211
G1 X181.257 Y91.054 E27.84422
G1 X181.711 Y91.094 E27.85938
G1 X182.151 Y91.212 E27.87453
G1 X182.564 Y91.405 E27.88969
G1 X183.097 Y91.816 E27.91208
G1 X183.214 Y91.933 E27.91758
G1 X183.507 Y92.282 E27.93274
G1 X183.734 Y92.677 E27.94789
G1 X183.889 Y93.105 E27.96303
G1 X183.976 Y93.771 E27.98537
G1 X183.976 Y96.514 E28.0766
G1 X183.936 Y96.968 E28.09176
G1 X183.818 Y97.408 E28.10691
G1 X183.624 Y97.82 E28.12206
G1 X183.214 Y98.352 E28.1444
G1 X183.097 Y98.469 E28.1499
G1 X182.748 Y98.762 E28.16506
