;FLAVOR:Marlin
;TIME:2300
;Filament used: 0.270624m
;Layer height: 0.16
;MINX:146.191
;MINY:35.871
;MINZ:0.2
;MAXX:187.466
;MAXY:54.66
;MAXZ:3.4
;Generated with Cura_SteamEngine 4.5.0
M140 S60
M105
M190 S60
M104 S215
M105
M109 S215
M82 ;absolute extrusion mode
; Ender 3 Custom Start G-code
G92 E0 ; Reset Extruder
G28 ; Home all axes
G1 Z2.0 F3000 ; Move Z Axis up little to prevent scratching of Heat Bed
G1 X0.1 Y20 Z0.3 F5000.0 ; Move to start position
G1 X0.1 Y200.0 Z0.3 F1500.0 E15 ; Draw the first line
G1 X0.4 Y200.0 Z0.3 F5000.0 ; Move to side a little
G1 X0.4 Y20 Z0.3 F1500.0 E30 ; Draw the second line
G92 E0 ; Reset Extruder
G1 Z2.0 F3000 ; Move Z Axis up little to prevent scratching of Heat Bed
G1 X5 Y20 Z0.3 F5000.0 ; Move over to prevent blob squish
G92 E0
G92 E0
G1 F1500 E-6.5
;LAYER_COUNT:21
;LAYER:0
M107
G0 F600 X146.233 Y37.785 Z0.2
;TYPE:SKIRT
G1 F1500 E0
G1 F300 X146.351 Y37.378 E0.01057
G1 X146.544 Y37.001 E0.02114
G1 X146.804 Y36.666 E0.03171
G1 X147.122 Y36.386 E0.04228
G1 X147.487 Y36.17 E0.05286
G1 X147.886 Y36.027 E0.06344
G1 X148.443 Y35.957 E0.07744
G1 X165.443 Y35.957 E0.50151
G1 X165.865 Y35.997 E0.51208
G1 X166.272 Y36.115 E0.52265
G1 X166.649 Y36.308 E0.53322
G1 X166.695 Y36.344 E0.53467
G1 X166.745 Y36.3 E0.53633
G1 X167.11 Y36.084 E0.54691
G1 X167.509 Y35.941 E0.55749
G1 X168.066 Y35.871 E0.57149
G1 X185.066 Y35.871 E0.99556
G1 X185.488 Y35.911 E1.00613
G1 X185.895 Y36.029 E1.0167
G1 X186.272 Y36.222 E1.02727
G1 X186.607 Y36.482 E1.03785
G1 X186.887 Y36.8 E1.04842
G1 X187.103 Y37.165 E1.059
G1 X187.246 Y37.564 E1.06957
G1 X187.316 Y38.121 E1.08357
G1 X187.316 Y44.121 E1.23324
G1 X187.276 Y44.543 E1.24382
G1 X187.158 Y44.95 E1.25439
G1 X187.064 Y45.134 E1.25954
G1 X187.253 Y45.454 E1.26881
G1 X187.396 Y45.853 E1.27939
G1 X187.466 Y46.41 E1.29339
G1 X187.466 Y52.41 E1.44306
G1 X187.426 Y52.832 E1.45363
G1 X187.308 Y53.239 E1.4642
G1 X187.115 Y53.616 E1.47477
G1 X186.855 Y53.951 E1.48535
G1 X186.537 Y54.231 E1.49592
G1 X186.172 Y54.447 E1.5065
G1 X185.773 Y54.59 E1.51707
G1 X185.216 Y54.66 E1.53107
G1 X168.216 Y54.66 E1.95514
G1 X167.794 Y54.62 E1.96571
G1 X167.387 Y54.502 E1.97628
G1 X167.01 Y54.309 E1.98685
G1 X166.675 Y54.049 E1.99743
G1 X166.397 Y54.213 E2.00548
G1 X165.998 Y54.356 E2.01605
G1 X165.441 Y54.426 E2.03006
G1 X148.441 Y54.426 E2.45412
G1 X148.019 Y54.386 E2.4647
G1 X147.612 Y54.268 E2.47527
G1 X147.235 Y54.075 E2.48583
G1 X146.9 Y53.815 E2.49641
G1 X146.62 Y53.497 E2.50698
G1 X146.404 Y53.132 E2.51756
G1 X146.261 Y52.733 E2.52813
G1 X146.191 Y52.176 E2.54214
G1 X146.191 Y46.176 E2.69181
G1 X146.231 Y45.754 E2.70238
G1 X146.349 Y45.347 E2.71295
G1 X146.426 Y45.197 E2.71716
G1 X146.263 Y44.764 E2.7287
G1 X146.193 Y44.207 E2.7427
G1 X146.193 Y38.207 E2.89237
G1 X146.233 Y37.785 E2.90295
G0 F600 X146.533 Y37.815
G1 F300 X146.651 Y37.438 E2.9128
G1 X146.842 Y37.093 E2.92264
G1 X147.099 Y36.794 E2.93247
G1 X147.411 Y36.552 E2.94232
G1 X147.765 Y36.379 E2.95215
G1 X148.147 Y36.28 E2.962
G1 X148.443 Y36.257 E2.9694
G1 X165.443 Y36.257 E3.39347
G1 X165.835 Y36.297 E3.4033
G1 X166.212 Y36.415 E3.41315
G1 X166.557 Y36.606 E3.42299
G1 X166.702 Y36.731 E3.42776
G1 X167.034 Y36.466 E3.43836
G1 X167.388 Y36.293 E3.44819
G1 X167.77 Y36.194 E3.45803
G1 X168.066 Y36.171 E3.46544
G1 X185.066 Y36.171 E3.88951
G1 X185.458 Y36.211 E3.89934
G1 X185.835 Y36.329 E3.90919
G1 X186.18 Y36.52 E3.91903
G1 X186.479 Y36.777 E3.92886
G1 X186.721 Y37.089 E3.93871
G1 X186.894 Y37.443 E3.94854
G1 X186.993 Y37.825 E3.95838
G1 X187.016 Y38.121 E3.96579
G1 X187.016 Y44.121 E4.11546
G1 X186.976 Y44.513 E4.12529
G1 X186.858 Y44.89 E4.13514
G1 X186.706 Y45.165 E4.14298
G1 X186.871 Y45.378 E4.1497
G1 X187.044 Y45.732 E4.15953
G1 X187.143 Y46.114 E4.16938
G1 X187.166 Y46.41 E4.17678
G1 X187.166 Y52.41 E4.32645
G1 X187.126 Y52.802 E4.33628
G1 X187.008 Y53.179 E4.34614
G1 X186.817 Y53.524 E4.35597
G1 X186.56 Y53.823 E4.36581
G1 X186.248 Y54.065 E4.37566
G1 X185.894 Y54.238 E4.38549
G1 X185.512 Y54.337 E4.39533
G1 X185.216 Y54.36 E4.40274
G1 X168.216 Y54.36 E4.8268
G1 X167.824 Y54.32 E4.83663
G1 X167.447 Y54.202 E4.84649
G1 X167.102 Y54.011 E4.85632
G1 X166.803 Y53.754 E4.86616
G1 X166.716 Y53.642 E4.8697
G1 X166.473 Y53.831 E4.87738
G1 X166.119 Y54.004 E4.8872
G1 X165.737 Y54.103 E4.89705
G1 X165.441 Y54.126 E4.90445
G1 X148.441 Y54.126 E5.32852
G1 X148.049 Y54.086 E5.33835
G1 X147.672 Y53.968 E5.3482
G1 X147.327 Y53.777 E5.35804
G1 X147.028 Y53.52 E5.36788
G1 X146.786 Y53.208 E5.37773
G1 X146.613 Y52.854 E5.38755
G1 X146.514 Y52.472 E5.3974
G1 X146.491 Y52.176 E5.4048
G1 X146.491 Y46.176 E5.55447
G1 X146.531 Y45.784 E5.5643
G1 X146.649 Y45.407 E5.57416
G1 X146.766 Y45.195 E5.5802
G1 X146.615 Y44.885 E5.5888
G1 X146.516 Y44.503 E5.59864
G1 X146.493 Y44.207 E5.60605
G1 X146.493 Y38.207 E5.75572
G1 X146.533 Y37.815 E5.76555
G0 F600 X146.833 Y37.846
G1 F300 X146.951 Y37.503 E5.7746
G1 X147.14 Y37.194 E5.78363
G1 X147.393 Y36.934 E5.79268
G1 X147.697 Y36.735 E5.80175
G1 X148.036 Y36.608 E5.81078
G1 X148.443 Y36.557 E5.82101
G1 X165.443 Y36.557 E6.24508
G1 X165.804 Y36.597 E6.25414
G1 X166.147 Y36.715 E6.26318
G1 X166.456 Y36.904 E6.27222
G1 X166.716 Y37.157 E6.28127
G1 X167.016 Y36.848 E6.29201
G1 X167.32 Y36.649 E6.30108
G1 X167.659 Y36.522 E6.31011
G1 X168.066 Y36.471 E6.32034
G1 X185.066 Y36.471 E6.74441
G1 X185.427 Y36.511 E6.75347
G1 X185.77 Y36.629 E6.76251
G1 X186.079 Y36.818 E6.77155
G1 X186.339 Y37.071 E6.7806
G1 X186.538 Y37.375 E6.78966
G1 X186.665 Y37.714 E6.79869
G1 X186.716 Y38.121 E6.80893
G1 X186.716 Y44.121 E6.9586
G1 X186.676 Y44.482 E6.96766
G1 X186.558 Y44.825 E6.9767
G1 X186.369 Y45.134 E6.98574
G1 X186.314 Y45.19 E6.9877
G1 X186.489 Y45.36 E6.99378
G1 X186.688 Y45.664 E7.00285
G1 X186.815 Y46.003 E7.01188
G1 X186.866 Y46.41 E7.02211
G1 X186.866 Y52.41 E7.17178
G1 X186.826 Y52.771 E7.18084
G1 X186.708 Y53.114 E7.18989
G1 X186.519 Y53.423 E7.19892
G1 X186.266 Y53.683 E7.20797
G1 X185.962 Y53.882 E7.21704
G1 X185.623 Y54.009 E7.22607
G1 X185.216 Y54.06 E7.2363
G1 X168.216 Y54.06 E7.66037
G1 X167.855 Y54.02 E7.66943
G1 X167.512 Y53.902 E7.67848
G1 X167.203 Y53.713 E7.68751
G1 X166.943 Y53.46 E7.69656
G1 X166.754 Y53.172 E7.70515
G1 X166.491 Y53.449 E7.71468
G1 X166.187 Y53.648 E7.72375
G1 X165.848 Y53.775 E7.73278
G1 X165.441 Y53.826 E7.74301
G1 X148.441 Y53.826 E8.16707
G1 X148.08 Y53.786 E8.17613
G1 X147.737 Y53.668 E8.18518
G1 X147.428 Y53.479 E8.19422
G1 X147.168 Y53.226 E8.20327
G1 X146.969 Y52.922 E8.21233
G1 X146.842 Y52.583 E8.22136
G1 X146.791 Y52.176 E8.23159
G1 X146.791 Y46.176 E8.38127
G1 X146.831 Y45.815 E8.39033
G1 X146.949 Y45.472 E8.39937
G1 X147.124 Y45.186 E8.40774
G1 X146.971 Y44.953 E8.41469
G1 X146.844 Y44.614 E8.42372
G1 X146.793 Y44.207 E8.43395
G1 X146.793 Y38.207 E8.58362
G1 X146.833 Y37.846 E8.59268
G0 F600 X147.133 Y37.881
G1 F300 X147.25 Y37.575 E8.60086
G1 X147.438 Y37.306 E8.60904
G1 X147.685 Y37.09 E8.61723
G1 X147.976 Y36.94 E8.62539
G1 X148.443 Y36.857 E8.63723
G1 X165.443 Y36.857 E9.06129
G1 X165.769 Y36.897 E9.06949
G1 X166.075 Y37.014 E9.07766
G1 X166.344 Y37.202 E9.08585
G1 X166.56 Y37.449 E9.09403
G1 X166.71 Y37.74 E9.1022
G1 X166.741 Y37.916 E9.10665
G1 X166.756 Y37.795 E9.1097
G1 X166.873 Y37.489 E9.11787
G1 X167.061 Y37.22 E9.12605
G1 X167.308 Y37.004 E9.13424
G1 X167.599 Y36.854 E9.14241
G1 X168.066 Y36.771 E9.15424
G1 X185.066 Y36.771 E9.57831
G1 X185.392 Y36.811 E9.5865
G1 X185.698 Y36.928 E9.59467
G1 X185.967 Y37.116 E9.60286
G1 X186.183 Y37.363 E9.61104
G1 X186.333 Y37.654 E9.61921
G1 X186.416 Y38.121 E9.63104
G1 X186.416 Y44.121 E9.78071
G1 X186.376 Y44.447 E9.7889
G1 X186.259 Y44.753 E9.79708
G1 X186.071 Y45.022 E9.80526
G1 X185.848 Y45.217 E9.81265
G1 X186.117 Y45.405 E9.82084
G1 X186.333 Y45.652 E9.82902
G1 X186.483 Y45.943 E9.83719
G1 X186.566 Y46.41 E9.84902
G1 X186.566 Y52.41 E9.99869
G1 X186.526 Y52.736 E10.00689
G1 X186.409 Y53.042 E10.01506
G1 X186.221 Y53.311 E10.02325
G1 X185.974 Y53.527 E10.03143
G1 X185.683 Y53.677 E10.0396
G1 X185.216 Y53.76 E10.05143
G1 X168.216 Y53.76 E10.4755
G1 X167.89 Y53.72 E10.48369
G1 X167.584 Y53.603 E10.49186
G1 X167.315 Y53.415 E10.50005
G1 X167.099 Y53.168 E10.50823
G1 X166.949 Y52.877 E10.5164
G1 X166.866 Y52.41 E10.52823
G1 X166.866 Y46.41 E10.6779
G1 X166.906 Y46.084 E10.68609
G1 X167.023 Y45.778 E10.69427
G1 X167.211 Y45.509 E10.70245
G1 X167.434 Y45.314 E10.70984
G1 X167.165 Y45.126 E10.71803
G1 X166.949 Y44.879 E10.72621
G1 X166.799 Y44.588 E10.73438
G1 X166.768 Y44.412 E10.73884
G1 X166.753 Y44.533 E10.74188
G1 X166.636 Y44.839 E10.75005
G1 X166.448 Y45.108 E10.75824
G1 X166.357 Y45.188 E10.76126
G1 X166.558 Y45.418 E10.76888
G1 X166.708 Y45.709 E10.77705
G1 X166.791 Y46.176 E10.78888
G1 X166.791 Y52.176 E10.93855
G1 X166.751 Y52.502 E10.94674
G1 X166.634 Y52.808 E10.95492
G1 X166.446 Y53.077 E10.9631
G1 X166.199 Y53.293 E10.97129
G1 X165.908 Y53.443 E10.97945
G1 X165.441 Y53.526 E10.99129
G1 X148.441 Y53.526 E11.41535
G1 X148.115 Y53.486 E11.42355
G1 X147.809 Y53.369 E11.43172
G1 X147.54 Y53.181 E11.4399
G1 X147.324 Y52.934 E11.44809
G1 X147.174 Y52.643 E11.45626
G1 X147.091 Y52.176 E11.46809
G1 X147.091 Y46.176 E11.61776
G1 X147.131 Y45.85 E11.62595
G1 X147.248 Y45.544 E11.63412
G1 X147.436 Y45.275 E11.64231
G1 X147.527 Y45.195 E11.64533
G1 X147.326 Y44.965 E11.65295
G1 X147.176 Y44.674 E11.66112
G1 X147.093 Y44.207 E11.67295
G1 X147.093 Y38.207 E11.82262
G1 X147.133 Y37.881 E11.83082
G0 F600 X147.433 Y37.921
G1 F300 X147.549 Y37.656 E11.83803
G1 X147.733 Y37.433 E11.84524
G1 X147.971 Y37.269 E11.85245
G1 X148.245 Y37.176 E11.85967
G1 X148.443 Y37.157 E11.86463
G1 X165.443 Y37.157 E12.2887
G1 X165.729 Y37.197 E12.2959
G1 X165.994 Y37.313 E12.30312
G1 X166.217 Y37.497 E12.31033
G1 X166.381 Y37.735 E12.31754
G1 X166.474 Y38.009 E12.32476
G1 X166.493 Y38.207 E12.32972
G1 X166.493 Y44.207 E12.47939
G1 X166.453 Y44.493 E12.4866
G1 X166.337 Y44.758 E12.49381
G1 X166.153 Y44.981 E12.50102
G1 X165.915 Y45.145 E12.50823
G1 X165.782 Y45.19 E12.51174
G1 X165.992 Y45.282 E12.51745
G1 X166.215 Y45.466 E12.52467
G1 X166.379 Y45.704 E12.53188
G1 X166.472 Y45.978 E12.53909
G1 X166.491 Y46.176 E12.54406
G1 X166.491 Y52.176 E12.69373
G1 X166.451 Y52.462 E12.70093
G1 X166.335 Y52.727 E12.70815
G1 X166.151 Y52.95 E12.71536
G1 X165.913 Y53.114 E12.72257
G1 X165.639 Y53.207 E12.72979
G1 X165.441 Y53.226 E12.73475
G1 X148.441 Y53.226 E13.15882
G1 X148.155 Y53.186 E13.16602
G1 X147.89 Y53.07 E13.17323
G1 X147.667 Y52.886 E13.18045
G1 X147.503 Y52.648 E13.18766
G1 X147.41 Y52.374 E13.19487
G1 X147.391 Y52.176 E13.19984
G1 X147.391 Y46.176 E13.34951
G1 X147.431 Y45.89 E13.35671
G1 X147.547 Y45.625 E13.36393
G1 X147.731 Y45.402 E13.37114
G1 X147.969 Y45.238 E13.37835
G1 X148.102 Y45.193 E13.38185
G1 X147.892 Y45.101 E13.38757
G1 X147.669 Y44.917 E13.39478
G1 X147.505 Y44.679 E13.40199
G1 X147.412 Y44.405 E13.40921
G1 X147.393 Y44.207 E13.41417
G1 X147.393 Y38.207 E13.56384
G1 X147.433 Y37.921 E13.57105
G0 F600 X147.733 Y37.966
G1 F300 X147.848 Y37.751 E13.57713
G1 X148.026 Y37.584 E13.58322
G1 X148.248 Y37.483 E13.5893
G1 X148.443 Y37.457 E13.59421
G1 X165.443 Y37.457 E14.01827
G1 X165.684 Y37.497 E14.02437
G1 X165.899 Y37.612 E14.03045
G1 X166.066 Y37.79 E14.03654
G1 X166.167 Y38.012 E14.04262
G1 X166.193 Y38.207 E14.04753
G1 X166.193 Y44.207 E14.1972
G1 X166.153 Y44.448 E14.2033
G1 X166.038 Y44.663 E14.20938
G1 X165.86 Y44.83 E14.21547
G1 X165.638 Y44.931 E14.22155
G1 X165.443 Y44.957 E14.22646
G1 X148.443 Y44.957 E14.65052
G1 X148.202 Y44.917 E14.65662
G1 X147.987 Y44.802 E14.6627
G1 X147.82 Y44.624 E14.66879
G1 X147.719 Y44.402 E14.67487
G1 X147.693 Y44.207 E14.67978
G1 X147.693 Y38.207 E14.82945
G1 X147.733 Y37.966 E14.83555
G0 F600 X147.993 Y38.207
G1 F300 X148.033 Y38.023 E14.84024
G1 X148.144 Y37.87 E14.84496
G1 X148.308 Y37.778 E14.84965
G1 X148.443 Y37.757 E14.85306
G1 X165.443 Y37.757 E15.27712
G1 X165.627 Y37.797 E15.28182
G1 X165.78 Y37.908 E15.28654
G1 X165.872 Y38.072 E15.29123
G1 X165.893 Y38.207 E15.29463
G1 X165.893 Y44.207 E15.4443
G1 X165.853 Y44.391 E15.449
G1 X165.742 Y44.544 E15.45372
G1 X165.578 Y44.636 E15.45841
G1 X165.443 Y44.657 E15.46182
G1 X148.443 Y44.657 E15.88588
G1 X148.259 Y44.617 E15.89058
G1 X148.106 Y44.506 E15.89529
G1 X148.014 Y44.342 E15.89999
G1 X147.993 Y44.207 E15.90339
G1 X147.993 Y38.207 E16.05306
G0 F600 X148.293 Y38.207
G1 F300 X148.332 Y38.106 E16.05577
G1 X148.443 Y38.057 E16.05879
G1 X165.443 Y38.057 E16.48286
G1 X165.544 Y38.096 E16.48556
G1 X165.593 Y38.207 E16.48859
G1 X165.593 Y44.207 E16.63826
G1 X165.554 Y44.308 E16.64096
G1 X165.443 Y44.357 E16.64398
G1 X148.443 Y44.357 E17.06805
G1 X148.342 Y44.318 E17.07075
G1 X148.293 Y44.207 E17.07378
G1 X148.293 Y38.207 E17.22345
G1 F1500 E10.72345
G0 F600 X147.778 Y38.207
G0 X147.79 Y44.86
G0 X148.246 Y45.452
G1 F1500 E17.22345
G1 F300 X148.441 Y45.426 E17.22836
G1 X165.441 Y45.426 E17.65242
G1 X165.682 Y45.466 E17.65852
G1 X165.897 Y45.581 E17.6646
G1 X166.064 Y45.759 E17.67069
G1 X166.165 Y45.981 E17.67677
G1 X166.191 Y46.176 E17.68168
G1 X166.191 Y52.176 E17.83135
G1 X166.151 Y52.417 E17.83744
G1 X166.036 Y52.632 E17.84353
G1 X165.858 Y52.799 E17.84961
G1 X165.636 Y52.9 E17.8557
G1 X165.441 Y52.926 E17.86061
G1 X148.441 Y52.926 E18.28467
G1 X148.2 Y52.886 E18.29077
G1 X147.985 Y52.771 E18.29685
G1 X147.818 Y52.593 E18.30294
G1 X147.717 Y52.371 E18.30902
G1 X147.691 Y52.176 E18.31393
G1 X147.691 Y46.176 E18.4636
G1 X147.731 Y45.935 E18.46969
G1 X147.846 Y45.72 E18.47578
G1 X148.024 Y45.553 E18.48186
G1 X148.246 Y45.452 E18.48795
G0 F600 X148.306 Y45.747
G1 F300 X148.441 Y45.726 E18.49136
G1 X165.441 Y45.726 E18.91542
G1 X165.625 Y45.766 E18.92012
G1 X165.778 Y45.877 E18.92483
G1 X165.87 Y46.041 E18.92953
G1 X165.891 Y46.176 E18.93293
G1 X165.891 Y52.176 E19.0826
G1 X165.851 Y52.36 E19.0873
G1 X165.74 Y52.513 E19.09202
G1 X165.576 Y52.605 E19.09671
G1 X165.441 Y52.626 E19.10012
G1 X148.441 Y52.626 E19.52418
G1 X148.257 Y52.586 E19.52888
G1 X148.104 Y52.475 E19.53359
G1 X148.012 Y52.311 E19.53829
G1 X147.991 Y52.176 E19.54169
G1 X147.991 Y46.176 E19.69136
G1 X148.031 Y45.992 E19.69606
G1 X148.142 Y45.839 E19.70078
G1 X148.306 Y45.747 E19.70547
G0 F600 X148.441 Y46.026
G1 F300 X165.441 Y46.026 E20.12953
G1 X165.542 Y46.065 E20.13223
G1 X165.591 Y46.176 E20.13526
G1 X165.591 Y52.176 E20.28493
G1 X165.552 Y52.277 E20.28763
G1 X165.441 Y52.326 E20.29066
G1 X148.441 Y52.326 E20.71473
G1 X148.34 Y52.287 E20.71743
G1 X148.291 Y52.176 E20.72045
G1 X148.291 Y46.176 E20.87012
G1 X148.33 Y46.075 E20.87282
G1 X148.441 Y46.026 E20.87585
G1 F1500 E14.37585
G0 F600 X148.441 Y45.511
G0 X166.094 Y45.523
G0 X167.206 Y46.124
G1 F1500 E20.87585
G1 F300 X167.322 Y45.859 E20.88307
G1 X167.506 Y45.636 E20.89028
G1 X167.744 Y45.472 E20.89749
G1 X168.018 Y45.379 E20.90471
G1 X168.216 Y45.36 E20.90967
G1 X185.216 Y45.36 E21.33374
G1 X185.502 Y45.4 E21.34094
G1 X185.767 Y45.516 E21.34816
G1 X185.99 Y45.7 E21.35537
G1 X186.154 Y45.938 E21.36258
G1 X186.247 Y46.212 E21.3698
G1 X186.266 Y46.41 E21.37476
G1 X186.266 Y52.41 E21.52443
G1 X186.226 Y52.696 E21.53163
G1 X186.11 Y52.961 E21.53885
G1 X185.926 Y53.184 E21.54606
G1 X185.688 Y53.348 E21.55327
G1 X185.414 Y53.441 E21.56049
G1 X185.216 Y53.46 E21.56545
G1 X168.216 Y53.46 E21.98952
G1 X167.93 Y53.42 E21.99672
G1 X167.665 Y53.304 E22.00394
G1 X167.442 Y53.12 E22.01115
G1 X167.278 Y52.882 E22.01836
G1 X167.185 Y52.608 E22.02558
G1 X167.166 Y52.41 E22.03054
G1 X167.166 Y46.41 E22.18021
G1 X167.206 Y46.124 E22.18741
G0 F600 X167.506 Y46.169
G1 F300 X167.621 Y45.954 E22.19349
G1 X167.799 Y45.787 E22.19958
G1 X168.021 Y45.686 E22.20567
G1 X168.216 Y45.66 E22.21057
G1 X185.216 Y45.66 E22.63464
G1 X185.457 Y45.7 E22.64073
G1 X185.672 Y45.815 E22.64682
G1 X185.839 Y45.993 E22.65291
G1 X185.94 Y46.215 E22.65899
G1 X185.966 Y46.41 E22.6639
G1 X185.966 Y52.41 E22.81357
G1 X185.926 Y52.651 E22.81966
G1 X185.811 Y52.866 E22.82574
G1 X185.633 Y53.033 E22.83183
G1 X185.411 Y53.134 E22.83792
G1 X185.216 Y53.16 E22.84282
G1 X168.216 Y53.16 E23.26689
G1 X167.975 Y53.12 E23.27298
G1 X167.76 Y53.005 E23.27907
