;FLAVOR:Marlin
;TIME:2848
;Filament used: 0.439631m
;Layer height: 0.16
;MINX:105.911
;MINY:22.956
;MINZ:0.2
;MAXX:200.231
;MAXY:92.455
;MAXZ:2.76
;Generated with Cura_SteamEngine 4.5.0
M140 S60
M105
M190 S60
M104 S215
M105
M109 S215
M82 ;absolute extrusion mode
; Ender 3 Custom Start G-code
G92 E0 ; Reset Extruder
G28 ; Home all axes
G1 Z2.0 F3000 ; Move Z Axis up little to prevent scratching of Heat Bed
G1 X0.1 Y20 Z0.3 F5000.0 ; Move to start position
G1 X0.1 Y200.0 Z0.3 F1500.0 E15 ; Draw the first line
G1 X0.4 Y200.0 Z0.3 F5000.0 ; Move to side a little
G1 X0.4 Y20 Z0.3 F1500.0 E30 ; Draw the second line
G92 E0 ; Reset Extruder
G1 Z2.0 F3000 ; Move Z Axis up little to prevent scratching of Heat Bed
G1 X5 Y20 Z0.3 F5000.0 ; Move over to prevent blob squish
G92 E0
G92 E0
G1 F1500 E-6.5
;LAYER_COUNT:18
;LAYER:0
M107
G0 F6000 X106.084 Y27.342 Z0.2
;TYPE:SKIRT
G1 F1500 E0
G1 F300 X106.178 Y26.982 E0.00928
G1 X106.228 Y26.822 E0.01346
G1 X106.349 Y26.498 E0.02209
G1 X106.409 Y26.357 E0.02591
G1 X106.567 Y26.03 E0.03497
G1 X106.637 Y25.901 E0.03863
G1 X106.827 Y25.593 E0.04766
G1 X107.019 Y25.323 E0.05593
G1 X107.106 Y25.212 E0.05944
G1 X107.313 Y24.973 E0.06733
G1 X107.558 Y24.72 E0.07612
G1 X107.669 Y24.615 E0.07993
G1 X107.914 Y24.405 E0.08798
G1 X108.039 Y24.308 E0.09192
G1 X108.332 Y24.102 E0.10086
G1 X108.507 Y23.995 E0.10597
G1 X108.912 Y23.78 E0.11741
G1 X109.07 Y23.706 E0.12176
G1 X109.383 Y23.58 E0.13018
G1 X109.526 Y23.53 E0.13396
G1 X109.85 Y23.433 E0.1424
G1 X110.017 Y23.393 E0.14668
G1 X110.345 Y23.331 E0.15501
G1 X110.483 Y23.311 E0.15849
G1 X110.824 Y23.276 E0.16704
G1 X110.997 Y23.267 E0.17136
G1 X111.345 Y23.268 E0.18004
G1 X111.508 Y23.277 E0.18411
G1 X111.869 Y23.314 E0.19316
G1 X112.034 Y23.339 E0.19733
G1 X112.388 Y23.412 E0.20634
G1 X112.541 Y23.451 E0.21028
G1 X112.885 Y23.557 E0.21926
G1 X113.05 Y23.618 E0.22365
G1 X113.383 Y23.761 E0.23269
G1 X113.531 Y23.833 E0.2368
G1 X113.84 Y24.004 E0.2456
G1 X113.955 Y24.074 E0.24896
G1 X114.149 Y24.203 E0.25477
G1 X114.271 Y24.293 E0.25856
G1 X114.561 Y24.527 E0.26785
G1 X114.693 Y24.646 E0.27229
G1 X115.034 Y24.988 E0.28433
G1 X115.172 Y25.144 E0.28953
G1 X115.386 Y25.421 E0.29826
G1 X115.481 Y25.559 E0.30244
G1 X115.609 Y25.765 E0.30849
G1 X115.747 Y25.998 E0.31524
G1 X115.827 Y26.151 E0.31955
G1 X115.884 Y26.277 E0.323
G1 X116.024 Y25.989 E0.33099
G1 X116.088 Y25.87 E0.33436
G1 X116.202 Y25.677 E0.33995
G1 X116.277 Y25.561 E0.3434
G1 X116.475 Y25.282 E0.35193
G1 X116.571 Y25.16 E0.3558
G1 X116.79 Y24.906 E0.36417
G1 X116.902 Y24.788 E0.36823
G1 X117.246 Y24.467 E0.37996
G1 X117.403 Y24.339 E0.38502
G1 X117.504 Y24.264 E0.38816
G1 X117.675 Y24.145 E0.39335
G1 X117.931 Y23.976 E0.401
G1 X118.076 Y23.892 E0.40518
G1 X118.382 Y23.734 E0.41378
G1 X118.523 Y23.669 E0.41765
G1 X118.836 Y23.543 E0.42606
G1 X118.987 Y23.491 E0.43005
G1 X119.314 Y23.395 E0.43855
G1 X119.467 Y23.358 E0.44248
G1 X119.794 Y23.295 E0.45078
G1 X119.937 Y23.274 E0.45439
G1 X120.277 Y23.239 E0.46292
G1 X120.451 Y23.23 E0.46726
G1 X120.798 Y23.231 E0.47592
G1 X120.957 Y23.239 E0.47989
G1 X121.318 Y23.275 E0.48894
G1 X121.491 Y23.302 E0.49331
G1 X121.846 Y23.376 E0.50235
G1 X121.995 Y23.414 E0.50619
G1 X122.339 Y23.52 E0.51517
G1 X122.502 Y23.58 E0.5195
G1 X122.836 Y23.723 E0.52856
G1 X122.986 Y23.796 E0.53272
G1 X123.295 Y23.967 E0.54153
G1 X123.41 Y24.037 E0.54489
G1 X123.604 Y24.166 E0.5507
G1 X123.723 Y24.254 E0.5544
G1 X124.013 Y24.487 E0.56368
G1 X124.155 Y24.615 E0.56844
G1 X124.492 Y24.957 E0.58042
G1 X124.619 Y25.102 E0.58523
G1 X124.84 Y25.386 E0.59421
G1 X124.951 Y25.547 E0.59908
G1 X125.194 Y25.95 E0.61082
G1 X125.316 Y26.191 E0.61756
G1 X125.415 Y25.987 E0.62322
G1 X125.482 Y25.863 E0.62673
G1 X125.597 Y25.67 E0.63234
G1 X125.669 Y25.559 E0.63564
G1 X125.871 Y25.275 E0.64433
G1 X126.007 Y25.109 E0.64969
G1 X126.381 Y24.706 E0.6634
G1 X126.514 Y24.577 E0.66802
G1 X126.757 Y24.368 E0.67602
G1 X126.916 Y24.247 E0.681
G1 X127.305 Y23.987 E0.69267
G1 X127.463 Y23.894 E0.69725
G1 X127.77 Y23.735 E0.70587
G1 X127.915 Y23.669 E0.70985
G1 X128.229 Y23.543 E0.71829
G1 X128.368 Y23.494 E0.72196
G1 X128.691 Y23.397 E0.73037
G1 X128.854 Y23.357 E0.73456
G1 X129.186 Y23.293 E0.743
G1 X129.338 Y23.271 E0.74683
G1 X129.676 Y23.238 E0.7553
G1 X129.841 Y23.23 E0.75942
G1 X130.191 Y23.231 E0.76815
G1 X130.351 Y23.239 E0.77215
G1 X130.709 Y23.275 E0.78112
G1 X130.882 Y23.302 E0.78549
G1 X131.236 Y23.376 E0.79451
G1 X131.383 Y23.414 E0.7983
G1 X131.728 Y23.52 E0.8073
G1 X131.893 Y23.58 E0.81168
G1 X132.222 Y23.721 E0.82061
G1 X132.349 Y23.782 E0.82412
G1 X132.57 Y23.9 E0.83037
G1 X132.684 Y23.967 E0.83367
G1 X132.963 Y24.146 E0.84194
G1 X133.106 Y24.25 E0.84635
G1 X133.403 Y24.489 E0.85586
G1 X133.536 Y24.607 E0.8603
G1 X133.869 Y24.94 E0.87204
G1 X134.008 Y25.099 E0.87731
G1 X134.238 Y25.397 E0.8867
G1 X134.333 Y25.534 E0.89086
G1 X134.453 Y25.727 E0.89653
G1 X134.594 Y25.967 E0.90347
G1 X134.654 Y26.08 E0.90667
G1 X134.74 Y25.916 E0.91128
G1 X134.929 Y25.609 E0.92028
G1 X135.121 Y25.337 E0.92858
G1 X135.224 Y25.206 E0.93274
G1 X135.444 Y24.953 E0.9411
G1 X135.554 Y24.839 E0.94506
G1 X135.885 Y24.529 E0.95637
G1 X136.039 Y24.401 E0.96136
G1 X136.175 Y24.3 E0.96559
G1 X136.561 Y24.041 E0.97718
G1 X136.721 Y23.946 E0.98183
G1 X137.028 Y23.787 E0.99045
G1 X137.173 Y23.721 E0.99442
G1 X137.487 Y23.595 E1.00286
G1 X137.628 Y23.545 E1.0066
G1 X137.952 Y23.448 E1.01503
G1 X138.119 Y23.408 E1.01932
G1 X138.447 Y23.346 E1.02764
G1 X138.59 Y23.325 E1.03125
G1 X138.932 Y23.291 E1.03982
G1 X139.095 Y23.283 E1.04389
G1 X139.452 Y23.283 E1.0528
G1 X139.625 Y23.292 E1.05712
G1 X139.976 Y23.329 E1.06592
G1 X140.136 Y23.354 E1.06996
G1 X140.49 Y23.427 E1.07898
G1 X140.643 Y23.466 E1.08292
G1 X140.987 Y23.572 E1.0919
G1 X141.158 Y23.635 E1.09644
G1 X141.492 Y23.78 E1.10553
G1 X141.605 Y23.835 E1.10866
G1 X141.823 Y23.95 E1.11481
G1 X141.945 Y24.021 E1.11833
G1 X142.222 Y24.199 E1.12654
G1 X142.364 Y24.302 E1.13092
G1 X142.661 Y24.541 E1.14043
G1 X142.795 Y24.661 E1.14492
G1 X143.136 Y25.003 E1.15696
G1 X143.275 Y25.162 E1.16223
G1 X143.489 Y25.44 E1.17098
G1 X143.592 Y25.589 E1.1755
G1 X143.838 Y25.994 E1.18732
G1 X143.929 Y26.166 E1.19218
G1 X143.973 Y26.263 E1.19483
G1 X144.039 Y26.128 E1.19858
G1 X144.103 Y26.01 E1.20193
G1 X144.216 Y25.819 E1.20747
G1 X144.29 Y25.704 E1.21088
G1 X144.488 Y25.425 E1.21941
G1 X144.602 Y25.282 E1.22397
G1 X144.857 Y24.996 E1.23353
G1 X144.945 Y24.905 E1.23669
G1 X145.158 Y24.7 E1.24406
G1 X145.259 Y24.61 E1.24744
G1 X145.416 Y24.482 E1.25249
G1 X145.517 Y24.407 E1.25563
G1 X145.688 Y24.288 E1.26083
G1 X145.944 Y24.119 E1.26848
G1 X146.091 Y24.034 E1.27272
G1 X146.396 Y23.877 E1.28127
G1 X146.531 Y23.815 E1.28498
G1 X146.849 Y23.686 E1.29354
G1 X147.003 Y23.632 E1.29761
G1 X147.326 Y23.537 E1.30601
G1 X147.48 Y23.5 E1.30996
G1 X147.807 Y23.437 E1.31827
G1 X147.955 Y23.415 E1.322
G1 X148.296 Y23.381 E1.33055
G1 X148.46 Y23.373 E1.33464
G1 X148.817 Y23.373 E1.34355
G1 X148.989 Y23.382 E1.34784
G1 X149.341 Y23.419 E1.35667
G1 X149.499 Y23.443 E1.36066
G1 X149.852 Y23.515 E1.36965
G1 X150.01 Y23.556 E1.37372
G1 X150.349 Y23.661 E1.38257
G1 X150.517 Y23.723 E1.38704
G1 X150.971 Y23.925 E1.39943
G1 X151.183 Y24.037 E1.40541
G1 X151.302 Y24.106 E1.40885
G1 X151.58 Y24.284 E1.41708
G1 X151.722 Y24.387 E1.42146
G1 X152.025 Y24.63 E1.43115
G1 X152.163 Y24.754 E1.43577
G1 X152.506 Y25.099 E1.44791
G1 X152.637 Y25.247 E1.45284
G1 X152.801 Y25.459 E1.45953
G1 X152.958 Y25.676 E1.46621
G1 X153.049 Y25.817 E1.47039
G1 X153.223 Y26.118 E1.47907
G1 X153.295 Y26.257 E1.48297
G1 X153.436 Y26.565 E1.49142
G1 X153.487 Y26.468 E1.49415
G1 X153.644 Y26.142 E1.50318
G1 X153.715 Y26.011 E1.5069
G1 X153.905 Y25.703 E1.51592
G1 X154.097 Y25.433 E1.52419
G1 X154.184 Y25.321 E1.52773
G1 X154.373 Y25.102 E1.53494
G1 X154.58 Y24.881 E1.5425
G1 X154.714 Y24.753 E1.54712
G1 X154.997 Y24.512 E1.55639
G1 X155.146 Y24.399 E1.56106
G1 X155.531 Y24.14 E1.57263
G1 X155.69 Y24.046 E1.57724
G1 X156.001 Y23.884 E1.58599
G1 X156.149 Y23.816 E1.59005
G1 X156.463 Y23.69 E1.59849
G1 X156.61 Y23.639 E1.60237
G1 X156.935 Y23.543 E1.61082
G1 X157.09 Y23.505 E1.6148
G1 X157.417 Y23.442 E1.62311
G1 X157.566 Y23.42 E1.62687
G1 X157.908 Y23.386 E1.63544
G1 X158.071 Y23.378 E1.63951
G1 X158.427 Y23.378 E1.64839
G1 X158.599 Y23.387 E1.65269
G1 X158.951 Y23.424 E1.66152
G1 X159.109 Y23.448 E1.66551
G1 X159.462 Y23.52 E1.67449
G1 X159.619 Y23.56 E1.67853
G1 X159.959 Y23.665 E1.68741
G1 X160.123 Y23.726 E1.69177
G1 X160.461 Y23.871 E1.70095
G1 X160.6 Y23.938 E1.7048
G1 X160.899 Y24.105 E1.71334
G1 X161.186 Y24.286 E1.72181
G1 X161.353 Y24.407 E1.72695
G1 X161.739 Y24.724 E1.73941
G1 X161.892 Y24.866 E1.74462
G1 X162.147 Y25.136 E1.75388
G1 X162.246 Y25.251 E1.75767
G1 X162.411 Y25.464 E1.76439
G1 X162.568 Y25.681 E1.77107
G1 X162.657 Y25.818 E1.77514
G1 X162.831 Y26.117 E1.78377
G1 X162.891 Y26.233 E1.78703
G1 X162.929 Y26.154 E1.78922
G1 X162.994 Y26.033 E1.79264
G1 X163.111 Y25.836 E1.79836
G1 X163.186 Y25.722 E1.80176
G1 X163.381 Y25.448 E1.81015
G1 X163.492 Y25.308 E1.81461
G1 X163.75 Y25.018 E1.82429
G1 X163.842 Y24.923 E1.82759
G1 X164.054 Y24.72 E1.83491
G1 X164.172 Y24.617 E1.83882
G1 X164.434 Y24.41 E1.84715
G1 X164.55 Y24.326 E1.85072
G1 X164.734 Y24.205 E1.85622
G1 X164.857 Y24.132 E1.85978
G1 X165.259 Y23.915 E1.87118
G1 X165.429 Y23.836 E1.87586
G1 X165.743 Y23.71 E1.8843
G1 X165.891 Y23.658 E1.88821
G1 X166.217 Y23.562 E1.89669
G1 X166.371 Y23.525 E1.90064
G1 X166.698 Y23.462 E1.90894
G1 X166.846 Y23.44 E1.91268
G1 X167.187 Y23.406 E1.92122
G1 X167.351 Y23.398 E1.92532
G1 X167.708 Y23.398 E1.93423
G1 X167.88 Y23.407 E1.93852
G1 X168.232 Y23.444 E1.94735
G1 X168.391 Y23.468 E1.95136
G1 X168.743 Y23.54 E1.96033
G1 X168.899 Y23.58 E1.96434
G1 X169.239 Y23.685 E1.97322
G1 X169.408 Y23.748 E1.97772
G1 X169.747 Y23.895 E1.98694
G1 X169.865 Y23.952 E1.9902
G1 X170.184 Y24.127 E1.99928
G1 X170.471 Y24.309 E2.00776
G1 X170.635 Y24.428 E2.01281
G1 X171.024 Y24.748 E2.02538
G1 X171.176 Y24.89 E2.03057
G1 X171.427 Y25.156 E2.03969
G1 X171.525 Y25.269 E2.04342
G1 X171.692 Y25.484 E2.05021
G1 X171.849 Y25.701 E2.05689
G1 X171.94 Y25.842 E2.06108
G1 X172.07 Y26.067 E2.06756
G1 X172.142 Y25.919 E2.07167
G1 X172.204 Y25.804 E2.07493
G1 X172.317 Y25.613 E2.08046
G1 X172.391 Y25.498 E2.08387
G1 X172.589 Y25.219 E2.09241
G1 X172.69 Y25.091 E2.09647
G1 X172.911 Y24.837 E2.10487
G1 X173.033 Y24.711 E2.10925
G1 X173.331 Y24.434 E2.1194
G1 X173.432 Y24.347 E2.12272
G1 X173.645 Y24.179 E2.12949
G1 X173.752 Y24.102 E2.13278
G1 X173.941 Y23.976 E2.13844
G1 X174.076 Y23.895 E2.14237
G1 X174.473 Y23.682 E2.15361
G1 X174.638 Y23.605 E2.15815
G1 X174.954 Y23.478 E2.16665
G1 X175.112 Y23.424 E2.17081
G1 X175.438 Y23.33 E2.17928
G1 X175.574 Y23.296 E2.18277
G1 X175.902 Y23.231 E2.19111
G1 X176.063 Y23.208 E2.19517
G1 X176.401 Y23.175 E2.20364
G1 X176.561 Y23.167 E2.20764
G1 X176.918 Y23.167 E2.21654
G1 X177.09 Y23.176 E2.22084
G1 X177.442 Y23.213 E2.22967
G1 X177.601 Y23.237 E2.23368
G1 X177.953 Y23.309 E2.24264
G1 X178.109 Y23.349 E2.24666
G1 X178.449 Y23.454 E2.25554
G1 X178.618 Y23.517 E2.26004
G1 X179.072 Y23.719 E2.27243
G1 X179.284 Y23.831 E2.27841
G1 X179.402 Y23.9 E2.28182
G1 X179.682 Y24.079 E2.29011
G1 X179.812 Y24.171 E2.29409
G1 X180.087 Y24.387 E2.30281
G1 X180.238 Y24.521 E2.30784
G1 X180.606 Y24.891 E2.32086
G1 X180.736 Y25.039 E2.32578
G1 X180.902 Y25.253 E2.33253
G1 X181.059 Y25.47 E2.33921
G1 X181.15 Y25.611 E2.3434
G1 X181.324 Y25.912 E2.35207
G1 X181.383 Y26.025 E2.35525
G1 X181.407 Y25.976 E2.35661
G1 X181.468 Y25.863 E2.35982
G1 X181.583 Y25.668 E2.36546
G1 X181.658 Y25.551 E2.36893
G1 X181.856 Y25.272 E2.37746
G1 X181.955 Y25.146 E2.38146
G1 X182.176 Y24.891 E2.38988
G1 X182.283 Y24.779 E2.39374
G1 X182.627 Y24.457 E2.4055
G1 X182.784 Y24.329 E2.41055
G1 X182.885 Y24.254 E2.41369
G1 X183.056 Y24.135 E2.41888
G1 X183.312 Y23.966 E2.42654
G1 X183.457 Y23.882 E2.43072
G1 X183.763 Y23.724 E2.43931
G1 X183.906 Y23.659 E2.44323
G1 X184.22 Y23.533 E2.45167
G1 X184.361 Y23.483 E2.4554
G1 X184.685 Y23.386 E2.46383
G1 X184.846 Y23.347 E2.46797
G1 X185.178 Y23.283 E2.4764
G1 X185.329 Y23.261 E2.48021
G1 X185.666 Y23.228 E2.48865
G1 X185.832 Y23.22 E2.4928
G1 X186.182 Y23.221 E2.50153
G1 X186.342 Y23.229 E2.50553
G1 X186.701 Y23.265 E2.51453
G1 X186.866 Y23.29 E2.51869
G1 X187.219 Y23.362 E2.52768
G1 X187.376 Y23.402 E2.53172
G1 X187.716 Y23.507 E2.5406
G1 X187.885 Y23.57 E2.54509
G1 X188.339 Y23.772 E2.55749
G1 X188.551 Y23.884 E2.56347
G1 X188.67 Y23.953 E2.5669
G1 X188.948 Y24.131 E2.57514
G1 X189.09 Y24.234 E2.57951
G1 X189.393 Y24.477 E2.5892
G1 X189.531 Y24.601 E2.59383
G1 X189.874 Y24.946 E2.60596
G1 X190.009 Y25.1 E2.61107
G1 X190.224 Y25.378 E2.61984
G1 X190.323 Y25.521 E2.62418
G1 X190.436 Y25.703 E2.62952
G1 X190.493 Y25.596 E2.63255
G1 X190.607 Y25.403 E2.63814
G1 X190.682 Y25.287 E2.64158
G1 X190.88 Y25.008 E2.65012
G1 X190.976 Y24.886 E2.65399
G1 X191.195 Y24.632 E2.66236
G1 X191.307 Y24.514 E2.66642
G1 X191.651 Y24.193 E2.67815
G1 X191.898 Y23.997 E2.68602
G1 X192.124 Y23.839 E2.6929
G1 X192.347 Y23.696 E2.6995
G1 X192.477 Y23.621 E2.70325
G1 X192.783 Y23.462 E2.71185
G1 X192.928 Y23.395 E2.71584
G1 X193.241 Y23.269 E2.72425
G1 X193.392 Y23.217 E2.72824
G1 X193.719 Y23.121 E2.73674
G1 X193.872 Y23.084 E2.74066
G1 X194.199 Y23.021 E2.74897
G1 X194.342 Y23 E2.75258
G1 X194.682 Y22.965 E2.7611
G1 X194.856 Y22.956 E2.76545
G1 X195.203 Y22.957 E2.7741
G1 X195.362 Y22.965 E2.77808
G1 X195.723 Y23.001 E2.78713
G1 X195.896 Y23.028 E2.79149
G1 X196.251 Y23.102 E2.80054
G1 X196.4 Y23.14 E2.80437
G1 X196.744 Y23.246 E2.81335
G1 X196.907 Y23.306 E2.81769
G1 X197.241 Y23.449 E2.82675
G1 X197.391 Y23.522 E2.83091
G1 X197.7 Y23.693 E2.83972
G1 X197.815 Y23.763 E2.84308
G1 X198.009 Y23.892 E2.84889
G1 X198.128 Y23.98 E2.85258
G1 X198.418 Y24.213 E2.86186
G1 X198.56 Y24.341 E2.86663
G1 X198.897 Y24.683 E2.87861
G1 X199.024 Y24.828 E2.88342
G1 X199.245 Y25.112 E2.89239
G1 X199.356 Y25.273 E2.89727
G1 X199.599 Y25.676 E2.90901
G1 X199.684 Y25.837 E2.91355
G1 X199.826 Y26.145 E2.92201
G1 X199.887 Y26.297 E2.9261
G1 X199.998 Y26.618 E2.93457
G1 X200.041 Y26.762 E2.93832
G1 X200.119 Y27.078 E2.94644
G1 X200.15 Y27.239 E2.95053
G1 X200.199 Y27.581 E2.95915
G1 X200.214 Y27.733 E2.96296
G1 X200.231 Y28.073 E2.97145
G1 X200.231 Y28.233 E2.97544
G1 X200.214 Y28.592 E2.98441
G1 X200.197 Y28.765 E2.98874
G1 X200.142 Y29.123 E2.99778
G1 X200.109 Y29.285 E3.0019
G1 X200.017 Y29.641 E3.01107
G1 X199.967 Y29.799 E3.01521
G1 X199.846 Y30.127 E3.02393
G1 X199.78 Y30.281 E3.02811
G1 X199.62 Y30.608 E3.03719
G1 X199.557 Y30.724 E3.04048
G1 X199.37 Y31.03 E3.04943
G1 X199.172 Y31.31 E3.05798
G1 X199.075 Y31.434 E3.06191
G1 X198.856 Y31.688 E3.07028
G1 X198.744 Y31.806 E3.07433
G1 X198.4 Y32.127 E3.08607
G1 X198.153 Y32.323 E3.09394
G1 X197.93 Y32.479 E3.10072
G1 X197.763 Y32.587 E3.10569
G1 X197.971 Y32.704 E3.11164
G1 X198.164 Y32.85 E3.11768
G1 X198.466 Y33.146 E3.12822
G1 X198.613 Y33.333 E3.13416
G1 X198.836 Y33.711 E3.14511
G1 X198.929 Y33.931 E3.15106
G1 X199.042 Y34.339 E3.16162
G1 X199.077 Y34.583 E3.16777
G1 X199.094 Y34.817 E3.17363
G1 X199.095 Y89.855 E4.54655
G1 X199.084 Y90.045 E4.5513
G1 X199.056 Y90.286 E4.55735
G1 X198.945 Y90.718 E4.56848
G1 X198.849 Y90.954 E4.57484
G1 X198.639 Y91.325 E4.58547
G1 X198.495 Y91.516 E4.59144
G1 X198.199 Y91.818 E4.60199
G1 X198.009 Y91.968 E4.60802
G1 X197.629 Y92.193 E4.61904
G1 X197.404 Y92.288 E4.62513
G1 X196.997 Y92.401 E4.63567
G1 X196.747 Y92.437 E4.64197
G1 X196.512 Y92.454 E4.64785
G1 X108.524 Y92.455 E6.84272
G1 X108.31 Y92.441 E6.84807
G1 X108.065 Y92.409 E6.85423
G1 X107.67 Y92.306 E6.86441
G1 X107.436 Y92.213 E6.87069
G1 X107.046 Y91.994 E6.88185
G1 X106.85 Y91.845 E6.88799
G1 X106.551 Y91.55 E6.89847
G1 X106.398 Y91.355 E6.90465
G1 X106.179 Y90.985 E6.91538
G1 X106.081 Y90.756 E6.92159
G1 X105.965 Y90.34 E6.93237
G1 X105.929 Y90.088 E6.93872
G1 X105.912 Y89.855 E6.94454
G1 X105.911 Y34.858 E8.31645
G1 X105.924 Y34.652 E8.3216
G1 X105.954 Y34.413 E8.32761
