;FLAVOR:Marlin
;TIME:1939
;Filament used: 0.265359m
;Layer height: 0.16
;MINX:120.599
;MINY:22.5
;MINZ:0.2
;MAXX:213.783
;MAXY:91.52
;MAXZ:0.68
;Generated with Cura_SteamEngine 4.5.0
M140 S60
M105
M190 S60
M104 S215
M105
M109 S215
M82 ;absolute extrusion mode
; Ender 3 Custom Start G-code
G92 E0 ; Reset Extruder
G28 ; Home all axes
G1 Z2.0 F3000 ; Move Z Axis up little to prevent scratching of Heat Bed
G1 X0.1 Y20 Z0.3 F5000.0 ; Move to start position
G1 X0.1 Y200.0 Z0.3 F1500.0 E15 ; Draw the first line
G1 X0.4 Y200.0 Z0.3 F5000.0 ; Move to side a little
G1 X0.4 Y20 Z0.3 F1500.0 E30 ; Draw the second line
G92 E0 ; Reset Extruder
G1 Z2.0 F3000 ; Move Z Axis up little to prevent scratching of Heat Bed
G1 X5 Y20 Z0.3 F5000.0 ; Move over to prevent blob squish
G92 E0
G92 E0
G1 F1500 E-6.5
;LAYER_COUNT:4
;LAYER:0
M107
G0 F6000 X120.747 Y33.073 Z0.2
;TYPE:SKIRT
G1 F1500 E0
G1 F300 X120.842 Y32.835 E0.00639
G1 X121.056 Y32.455 E0.01727
G1 X121.202 Y32.261 E0.02333
G1 X121.503 Y31.954 E0.03405
G1 X121.701 Y31.799 E0.04033
G1 X122.073 Y31.579 E0.05111
G1 X122.299 Y31.483 E0.05723
G1 X122.713 Y31.368 E0.06795
G1 X122.968 Y31.332 E0.07437
G1 X123.199 Y31.316 E0.08015
G1 X123.951 Y31.316 E0.09891
G1 X123.853 Y31.218 E0.10237
G1 X123.644 Y30.991 E0.11006
G1 X123.367 Y30.641 E0.1212
G1 X123.284 Y30.522 E0.12482
G1 X123.117 Y30.26 E0.13257
G1 X123.046 Y30.139 E0.13607
G1 X122.914 Y29.887 E0.14316
G1 X122.853 Y29.756 E0.14677
G1 X122.733 Y29.468 E0.15455
G1 X122.681 Y29.325 E0.15835
G1 X122.59 Y29.034 E0.16595
G1 X122.555 Y28.901 E0.16938
G1 X122.491 Y28.614 E0.17672
G1 X122.465 Y28.468 E0.18042
G1 X122.427 Y28.176 E0.18776
G1 X122.415 Y28.044 E0.19107
G1 X122.4 Y27.74 E0.19866
G1 X122.4 Y27.585 E0.20253
G1 X122.414 Y27.275 E0.21027
G1 X122.426 Y27.135 E0.21377
G1 X122.464 Y26.844 E0.22109
G1 X122.488 Y26.704 E0.22464
G1 X122.551 Y26.417 E0.23197
G1 X122.588 Y26.28 E0.23551
G1 X122.68 Y25.985 E0.24322
G1 X122.732 Y25.841 E0.24703
G1 X122.848 Y25.563 E0.25455
G1 X122.906 Y25.438 E0.25799
G1 X123.043 Y25.174 E0.26541
G1 X123.114 Y25.051 E0.26895
G1 X123.271 Y24.803 E0.27627
G1 X123.355 Y24.683 E0.27992
G1 X123.544 Y24.436 E0.28768
G1 X123.638 Y24.324 E0.29133
G1 X123.847 Y24.096 E0.29905
G1 X123.945 Y23.997 E0.30252
G1 X124.159 Y23.8 E0.30978
G1 X124.276 Y23.703 E0.31357
G1 X124.624 Y23.443 E0.3244
G1 X124.877 Y23.28 E0.33191
G1 X125.006 Y23.205 E0.33563
G1 X125.268 Y23.068 E0.34301
G1 X125.4 Y23.006 E0.34665
G1 X125.679 Y22.89 E0.35418
G1 X125.821 Y22.839 E0.35795
G1 X126.116 Y22.747 E0.36566
G1 X126.246 Y22.712 E0.36901
G1 X126.536 Y22.647 E0.37643
G1 X126.679 Y22.621 E0.38005
G1 X126.972 Y22.582 E0.38743
G1 X127.114 Y22.57 E0.39098
G1 X127.419 Y22.556 E0.3986
G1 X127.565 Y22.555 E0.40224
G1 X127.87 Y22.568 E0.40985
G1 X128.018 Y22.581 E0.41356
G1 X128.311 Y22.62 E0.42093
G1 X128.449 Y22.645 E0.42443
G1 X128.739 Y22.709 E0.43184
G1 X128.874 Y22.745 E0.43533
G1 X129.169 Y22.837 E0.44303
G1 X129.311 Y22.888 E0.4468
G1 X129.59 Y23.004 E0.45434
G1 X129.713 Y23.061 E0.45772
G1 X129.973 Y23.195 E0.46501
G1 X130.107 Y23.273 E0.46888
G1 X130.363 Y23.437 E0.47647
G1 X130.474 Y23.515 E0.47985
G1 X130.715 Y23.699 E0.48741
G1 X130.828 Y23.793 E0.49108
G1 X131.042 Y23.989 E0.49832
G1 X131.142 Y24.088 E0.50183
G1 X131.352 Y24.316 E0.50956
G1 X131.447 Y24.43 E0.51326
G1 X131.635 Y24.675 E0.52097
G1 X131.719 Y24.794 E0.5246
G1 X131.844 Y24.99 E0.5304
G1 X131.995 Y24.753 E0.53741
G1 X132.076 Y24.636 E0.54096
G1 X132.261 Y24.395 E0.54854
G1 X132.353 Y24.286 E0.5521
G1 X132.549 Y24.072 E0.55933
G1 X132.648 Y23.972 E0.56284
G1 X132.876 Y23.762 E0.57058
G1 X132.992 Y23.665 E0.57435
G1 X133.234 Y23.48 E0.58195
G1 X133.347 Y23.401 E0.58539
G1 X133.597 Y23.241 E0.59279
G1 X133.719 Y23.17 E0.59631
G1 X133.982 Y23.032 E0.60372
G1 X134.114 Y22.97 E0.60736
G1 X134.397 Y22.852 E0.61501
G1 X134.538 Y22.801 E0.61875
G1 X134.828 Y22.71 E0.62633
G1 X134.962 Y22.674 E0.62979
G1 X135.253 Y22.609 E0.63723
G1 X135.395 Y22.583 E0.64083
G1 X135.688 Y22.544 E0.6482
G1 X135.83 Y22.532 E0.65176
G1 X136.135 Y22.518 E0.65937
G1 X136.281 Y22.517 E0.66302
G1 X136.586 Y22.53 E0.67063
G1 X136.734 Y22.544 E0.67434
G1 X137.026 Y22.583 E0.68169
G1 X137.162 Y22.607 E0.68513
G1 X137.453 Y22.671 E0.69257
G1 X137.593 Y22.708 E0.69618
G1 X137.883 Y22.799 E0.70376
G1 X138.023 Y22.85 E0.70748
G1 X138.309 Y22.969 E0.7152
G1 X138.431 Y23.026 E0.71856
G1 X138.683 Y23.156 E0.72564
G1 X138.815 Y23.231 E0.72942
G1 X139.078 Y23.399 E0.73721
G1 X139.192 Y23.479 E0.74068
G1 X139.43 Y23.661 E0.74816
G1 X139.543 Y23.756 E0.75184
G1 X139.771 Y23.965 E0.75955
G1 X139.868 Y24.062 E0.76298
G1 X140.061 Y24.271 E0.77007
G1 X140.157 Y24.384 E0.77377
G1 X140.35 Y24.635 E0.78167
G1 X140.435 Y24.756 E0.78536
G1 X140.592 Y25.003 E0.79266
G1 X140.609 Y25.032 E0.7935
G1 X140.796 Y24.735 E0.80225
G1 X140.877 Y24.619 E0.80578
G1 X141.059 Y24.381 E0.81326
G1 X141.153 Y24.269 E0.8169
G1 X141.349 Y24.055 E0.82414
G1 X141.448 Y23.955 E0.82765
G1 X141.676 Y23.745 E0.83538
G1 X141.792 Y23.648 E0.83916
G1 X142.034 Y23.463 E0.84676
G1 X142.147 Y23.384 E0.85019
G1 X142.397 Y23.224 E0.8576
G1 X142.52 Y23.153 E0.86114
G1 X142.787 Y23.013 E0.86866
G1 X142.916 Y22.952 E0.87222
G1 X143.191 Y22.837 E0.87966
G1 X143.337 Y22.784 E0.88353
G1 X143.632 Y22.692 E0.89124
G1 X143.762 Y22.657 E0.8946
G1 X144.052 Y22.592 E0.90201
G1 X144.195 Y22.566 E0.90564
G1 X144.488 Y22.527 E0.91301
G1 X144.63 Y22.515 E0.91657
G1 X144.935 Y22.501 E0.92418
G1 X145.081 Y22.5 E0.92782
G1 X145.386 Y22.513 E0.93544
G1 X145.534 Y22.527 E0.93915
G1 X145.826 Y22.566 E0.9465
G1 X145.962 Y22.59 E0.94994
G1 X146.253 Y22.654 E0.95737
G1 X146.393 Y22.691 E0.96099
G1 X146.683 Y22.782 E0.96857
G1 X146.823 Y22.833 E0.97228
G1 X147.109 Y22.952 E0.98001
G1 X147.231 Y23.009 E0.98337
G1 X147.483 Y23.139 E0.99044
G1 X147.615 Y23.214 E0.99423
G1 X147.878 Y23.382 E1.00202
G1 X147.992 Y23.462 E1.00549
G1 X148.23 Y23.644 E1.01296
G1 X148.343 Y23.739 E1.01665
G1 X148.571 Y23.948 E1.02436
G1 X148.668 Y24.045 E1.02778
G1 X148.861 Y24.254 E1.03488
G1 X148.957 Y24.367 E1.03858
G1 X149.15 Y24.618 E1.04648
G1 X149.234 Y24.738 E1.05013
G1 X149.395 Y24.991 E1.05761
G1 X149.466 Y25.114 E1.06115
G1 X149.53 Y25.236 E1.06459
G1 X149.555 Y25.192 E1.06585
G1 X149.712 Y24.947 E1.07311
G1 X149.79 Y24.835 E1.07652
G1 X149.975 Y24.593 E1.08412
G1 X150.069 Y24.481 E1.08776
G1 X150.265 Y24.267 E1.095
G1 X150.364 Y24.167 E1.09851
G1 X150.592 Y23.957 E1.10624
G1 X150.708 Y23.86 E1.11002
G1 X150.95 Y23.675 E1.11761
G1 X151.063 Y23.596 E1.12105
G1 X151.313 Y23.436 E1.12846
G1 X151.436 Y23.365 E1.132
G1 X151.703 Y23.225 E1.13952
G1 X151.832 Y23.164 E1.14308
G1 X152.107 Y23.049 E1.15052
G1 X152.253 Y22.996 E1.15439
G1 X152.548 Y22.904 E1.1621
G1 X152.678 Y22.869 E1.16546
G1 X152.968 Y22.804 E1.17287
G1 X153.111 Y22.778 E1.1765
G1 X153.404 Y22.739 E1.18387
G1 X153.546 Y22.727 E1.18743
G1 X153.851 Y22.713 E1.19504
G1 X153.997 Y22.712 E1.19868
G1 X154.302 Y22.725 E1.2063
G1 X154.45 Y22.739 E1.21001
G1 X154.742 Y22.778 E1.21736
G1 X154.878 Y22.802 E1.2208
G1 X155.169 Y22.866 E1.22823
G1 X155.309 Y22.903 E1.23185
G1 X155.599 Y22.994 E1.23943
G1 X155.739 Y23.045 E1.24314
G1 X156.025 Y23.164 E1.25087
G1 X156.147 Y23.221 E1.25423
G1 X156.399 Y23.351 E1.2613
G1 X156.531 Y23.426 E1.26509
G1 X156.794 Y23.594 E1.27288
G1 X156.908 Y23.674 E1.27635
G1 X157.146 Y23.856 E1.28382
G1 X157.259 Y23.951 E1.28751
G1 X157.487 Y24.16 E1.29522
G1 X157.584 Y24.257 E1.29864
G1 X157.777 Y24.466 E1.30574
G1 X157.875 Y24.581 E1.30951
G1 X158.062 Y24.825 E1.31718
G1 X158.142 Y24.94 E1.32067
G1 X158.271 Y25.142 E1.32665
G1 X158.361 Y25.015 E1.33053
G1 X158.555 Y24.762 E1.33849
G1 X158.648 Y24.651 E1.3421
G1 X158.846 Y24.435 E1.34941
G1 X158.946 Y24.335 E1.35294
G1 X159.167 Y24.132 E1.36042
G1 X159.276 Y24.04 E1.36398
G1 X159.515 Y23.856 E1.3715
G1 X159.631 Y23.774 E1.37505
G1 X159.885 Y23.611 E1.38258
G1 X160.011 Y23.538 E1.38621
G1 X160.273 Y23.401 E1.39358
G1 X160.405 Y23.339 E1.39722
G1 X160.684 Y23.223 E1.40476
G1 X160.826 Y23.172 E1.40852
G1 X161.121 Y23.08 E1.41623
G1 X161.252 Y23.045 E1.41961
G1 X161.543 Y22.98 E1.42705
G1 X161.685 Y22.955 E1.43065
G1 X161.977 Y22.916 E1.438
G1 X162.119 Y22.903 E1.44155
G1 X162.424 Y22.889 E1.44917
G1 X162.57 Y22.888 E1.45281
G1 X162.875 Y22.901 E1.46043
G1 X163.023 Y22.914 E1.46413
G1 X163.316 Y22.953 E1.47151
G1 X163.454 Y22.978 E1.47501
G1 X163.744 Y23.042 E1.48241
G1 X163.879 Y23.078 E1.4859
G1 X164.174 Y23.17 E1.49361
G1 X164.315 Y23.221 E1.49735
G1 X164.59 Y23.335 E1.50477
G1 X164.713 Y23.392 E1.50815
G1 X164.981 Y23.53 E1.51567
G1 X165.116 Y23.607 E1.51955
G1 X165.369 Y23.769 E1.52705
G1 X165.48 Y23.848 E1.53044
G1 X165.721 Y24.032 E1.53801
G1 X165.836 Y24.128 E1.54174
G1 X166.056 Y24.33 E1.54919
G1 X166.155 Y24.429 E1.55269
G1 X166.358 Y24.65 E1.56017
G1 X166.452 Y24.762 E1.56382
G1 X166.633 Y24.998 E1.57124
G1 X166.715 Y25.114 E1.57478
G1 X166.879 Y25.371 E1.58239
G1 X166.9 Y25.407 E1.58343
G1 X167.011 Y25.231 E1.58862
G1 X167.095 Y25.111 E1.59227
G1 X167.284 Y24.864 E1.60003
G1 X167.379 Y24.751 E1.60371
G1 X167.582 Y24.53 E1.6112
G1 X167.678 Y24.434 E1.61459
G1 X167.899 Y24.23 E1.62209
G1 X168.016 Y24.131 E1.62591
G1 X168.258 Y23.946 E1.63351
G1 X168.37 Y23.868 E1.63691
G1 X168.626 Y23.704 E1.6445
G1 X168.753 Y23.63 E1.64816
G1 X169.008 Y23.497 E1.65534
G1 X169.137 Y23.437 E1.65889
G1 X169.423 Y23.318 E1.66662
G1 X169.563 Y23.267 E1.67033
G1 X169.853 Y23.176 E1.67791
G1 X169.986 Y23.14 E1.68135
G1 X170.276 Y23.075 E1.68876
G1 X170.419 Y23.049 E1.69239
G1 X170.712 Y23.01 E1.69976
G1 X170.854 Y22.998 E1.70332
G1 X171.159 Y22.984 E1.71093
G1 X171.305 Y22.983 E1.71458
G1 X171.61 Y22.996 E1.72219
G1 X171.758 Y23.009 E1.7259
G1 X172.051 Y23.048 E1.73327
G1 X172.189 Y23.073 E1.73677
G1 X172.479 Y23.137 E1.74418
G1 X172.617 Y23.174 E1.74774
G1 X172.907 Y23.265 E1.75532
G1 X173.047 Y23.316 E1.75904
G1 X173.333 Y23.435 E1.76677
G1 X173.455 Y23.492 E1.77013
G1 X173.707 Y23.622 E1.7772
G1 X173.839 Y23.697 E1.78099
G1 X174.102 Y23.865 E1.78877
G1 X174.214 Y23.943 E1.79218
G1 X174.453 Y24.125 E1.79967
G1 X174.569 Y24.223 E1.80346
G1 X174.79 Y24.426 E1.81094
G1 X174.886 Y24.522 E1.81433
G1 X175.09 Y24.743 E1.82183
G1 X175.187 Y24.858 E1.82559
G1 X175.375 Y25.103 E1.83329
G1 X175.458 Y25.221 E1.83689
G1 X175.531 Y25.335 E1.84027
G1 X175.629 Y25.181 E1.84482
G1 X175.708 Y25.068 E1.84826
G1 X175.891 Y24.828 E1.85579
G1 X175.988 Y24.712 E1.85956
G1 X176.191 Y24.491 E1.86704
G1 X176.287 Y24.395 E1.87043
G1 X176.508 Y24.191 E1.87793
G1 X176.625 Y24.092 E1.88176
G1 X176.867 Y23.907 E1.88936
G1 X176.979 Y23.829 E1.89276
G1 X177.235 Y23.665 E1.90034
G1 X177.362 Y23.591 E1.90401
G1 X177.617 Y23.458 E1.91118
G1 X177.746 Y23.398 E1.91473
G1 X178.032 Y23.279 E1.92246
G1 X178.172 Y23.228 E1.92618
G1 X178.462 Y23.137 E1.93376
G1 X178.595 Y23.101 E1.9372
G1 X178.885 Y23.036 E1.94461
G1 X179.028 Y23.01 E1.94824
G1 X179.321 Y22.971 E1.95561
G1 X179.463 Y22.959 E1.95916
G1 X179.768 Y22.945 E1.96678
G1 X179.914 Y22.944 E1.97042
G1 X180.219 Y22.957 E1.97804
G1 X180.367 Y22.97 E1.98174
G1 X180.66 Y23.009 E1.98912
G1 X180.798 Y23.034 E1.99262
G1 X181.088 Y23.098 E2.00002
G1 X181.226 Y23.135 E2.00359
G1 X181.516 Y23.226 E2.01117
G1 X181.656 Y23.277 E2.01489
G1 X182.062 Y23.451 E2.0259
G1 X182.315 Y23.581 E2.033
G1 X182.45 Y23.659 E2.03689
G1 X182.708 Y23.824 E2.04453
G1 X182.818 Y23.901 E2.04788
G1 X183.061 Y24.086 E2.0555
G1 X183.178 Y24.184 E2.0593
G1 X183.399 Y24.387 E2.06679
G1 X183.495 Y24.483 E2.07018
G1 X183.699 Y24.704 E2.07768
G1 X183.798 Y24.821 E2.0815
G1 X183.98 Y25.059 E2.08898
G1 X184.059 Y25.172 E2.09242
G1 X184.226 Y25.433 E2.10014
G1 X184.298 Y25.557 E2.10372
G1 X184.405 Y25.761 E2.10947
G1 X184.485 Y25.619 E2.11353
G1 X184.646 Y25.365 E2.12104
G1 X184.73 Y25.245 E2.12469
G1 X184.919 Y24.998 E2.13245
G1 X185.014 Y24.885 E2.13613
G1 X185.217 Y24.664 E2.14362
G1 X185.313 Y24.568 E2.147
G1 X185.534 Y24.364 E2.1545
G1 X185.651 Y24.265 E2.15833
G1 X185.889 Y24.083 E2.1658
G1 X186.002 Y24.004 E2.16924
G1 X186.263 Y23.837 E2.17697
G1 X186.387 Y23.765 E2.18055
G1 X186.641 Y23.632 E2.1877
G1 X186.772 Y23.571 E2.1913
G1 X187.058 Y23.452 E2.19903
G1 X187.198 Y23.401 E2.20275
G1 X187.488 Y23.31 E2.21033
G1 X187.621 Y23.274 E2.21377
G1 X187.911 Y23.209 E2.22118
G1 X188.054 Y23.183 E2.22481
G1 X188.347 Y23.144 E2.23218
G1 X188.489 Y23.132 E2.23573
G1 X188.794 Y23.118 E2.24335
G1 X188.94 Y23.117 E2.24699
G1 X189.245 Y23.13 E2.25461
G1 X189.393 Y23.143 E2.25831
G1 X189.686 Y23.182 E2.26569
G1 X189.824 Y23.207 E2.26919
G1 X190.114 Y23.271 E2.27659
G1 X190.252 Y23.308 E2.28016
G1 X190.542 Y23.399 E2.28774
G1 X190.682 Y23.45 E2.29146
G1 X191.088 Y23.624 E2.30248
G1 X191.341 Y23.754 E2.30957
G1 X191.476 Y23.832 E2.31346
G1 X191.734 Y23.997 E2.3211
G1 X191.844 Y24.074 E2.32445
G1 X192.087 Y24.259 E2.33207
G1 X192.204 Y24.357 E2.33587
G1 X192.425 Y24.56 E2.34336
G1 X192.521 Y24.656 E2.34675
G1 X192.725 Y24.877 E2.35425
G1 X192.822 Y24.992 E2.358
G1 X193.01 Y25.237 E2.36571
G1 X193.093 Y25.355 E2.3693
G1 X193.166 Y25.47 E2.3727
G1 X193.283 Y25.286 E2.37814
G1 X193.368 Y25.165 E2.38183
G1 X193.562 Y24.912 E2.38978
G1 X193.656 Y24.8 E2.39343
G1 X193.848 Y24.591 E2.40051
G1 X193.945 Y24.493 E2.40395
G1 X194.173 Y24.283 E2.41168
G1 X194.286 Y24.188 E2.41536
G1 X194.523 Y24.006 E2.42282
G1 X194.639 Y23.925 E2.42635
G1 X194.9 Y23.758 E2.43408
G1 X195.024 Y23.686 E2.43765
G1 X195.278 Y23.553 E2.44481
G1 X195.409 Y23.492 E2.44841
G1 X195.695 Y23.373 E2.45614
G1 X195.835 Y23.322 E2.45986
G1 X196.125 Y23.231 E2.46744
G1 X196.259 Y23.195 E2.4709
G1 X196.55 Y23.13 E2.47834
G1 X196.692 Y23.105 E2.48193
G1 X196.984 Y23.066 E2.48928
G1 X197.127 Y23.053 E2.49286
G1 X197.433 Y23.039 E2.5005
G1 X197.578 Y23.038 E2.50412
G1 X197.883 Y23.051 E2.51174
G1 X198.031 Y23.065 E2.51545
G1 X198.323 Y23.104 E2.52279
G1 X198.459 Y23.128 E2.52624
G1 X198.75 Y23.192 E2.53367
G1 X198.89 Y23.229 E2.53728
G1 X199.18 Y23.32 E2.54487
G1 X199.321 Y23.371 E2.54861
G1 X199.604 Y23.489 E2.55625
G1 X199.731 Y23.549 E2.55976
G1 X199.992 Y23.685 E2.5671
G1 X200.114 Y23.755 E2.57061
G1 X200.366 Y23.915 E2.57805
G1 X200.481 Y23.995 E2.58155
G1 X200.724 Y24.18 E2.58917
G1 X200.84 Y24.277 E2.59294
G1 X201.068 Y24.486 E2.60065
G1 X201.165 Y24.583 E2.60408
G1 X201.358 Y24.792 E2.61117
G1 X201.454 Y24.905 E2.61487
G1 X201.647 Y25.156 E2.62277
G1 X201.731 Y25.276 E2.62642
G1 X201.867 Y25.49 E2.63275
G1 X202.05 Y25.197 E2.64137
G1 X202.132 Y25.078 E2.64497
G1 X202.314 Y24.839 E2.65247
G1 X202.412 Y24.723 E2.65625
G1 X202.614 Y24.503 E2.6637
G1 X202.713 Y24.404 E2.6672
G1 X202.934 Y24.201 E2.67468
G1 X203.043 Y24.109 E2.67824
G1 X203.282 Y23.925 E2.68576
G1 X203.398 Y23.843 E2.68931
G1 X203.649 Y23.682 E2.69675
G1 X203.776 Y23.608 E2.70041
G1 X204.046 Y23.467 E2.70801
G1 X204.178 Y23.406 E2.71164
G1 X204.453 Y23.292 E2.71906
G1 X204.594 Y23.241 E2.7228
G1 X204.889 Y23.149 E2.73051
G1 X205.019 Y23.114 E2.73387
G1 X205.309 Y23.049 E2.74128
G1 X205.452 Y23.023 E2.74491
G1 X205.745 Y22.984 E2.75228
G1 X205.887 Y22.972 E2.75584
G1 X206.192 Y22.958 E2.76345
G1 X206.338 Y22.957 E2.7671
G1 X206.643 Y22.97 E2.77471
G1 X206.791 Y22.984 E2.77842
G1 X207.083 Y23.023 E2.78577
G1 X207.219 Y23.047 E2.78921
G1 X207.51 Y23.111 E2.79665
G1 X207.647 Y23.147 E2.80018
G1 X207.942 Y23.239 E2.80789
G1 X208.084 Y23.29 E2.81165
G1 X208.363 Y23.406 E2.81919
G1 X208.49 Y23.466 E2.82269
G1 X208.75 Y23.601 E2.83
G1 X208.876 Y23.673 E2.83362
G1 X209.132 Y23.836 E2.84119
G1 X209.247 Y23.917 E2.8447
G1 X209.488 Y24.101 E2.85226
G1 X209.603 Y24.197 E2.856
G1 X209.823 Y24.399 E2.86345
G1 X209.921 Y24.496 E2.86689
G1 X210.12 Y24.712 E2.87422
G1 X210.214 Y24.824 E2.87786
G1 X210.407 Y25.075 E2.88576
G1 X210.492 Y25.196 E2.88945
G1 X210.649 Y25.443 E2.89675
G1 X210.716 Y25.559 E2.90009
G1 X210.852 Y25.817 E2.90737
G1 X210.914 Y25.95 E2.91103
G1 X211.034 Y26.237 E2.91879
G1 X211.088 Y26.385 E2.92272
G1 X211.179 Y26.679 E2.9304
G1 X211.213 Y26.808 E2.93372
G1 X211.277 Y27.095 E2.94106
G1 X211.302 Y27.233 E2.94456
G1 X211.341 Y27.521 E2.95181
G1 X211.354 Y27.662 E2.95534
