;FLAVOR:Marlin
;TIME:9304
;Filament used: 5.32249m
;Layer height: 0.16
;MINX:112.471
;MINY:47.836
;MINZ:0.2
;MAXX:196.748
;MAXY:106
;MAXZ:7.88
;Generated with Cura_SteamEngine 4.5.0
M140 S110
M105
M190 S110
M104 S250
M105
M109 S250
M82 ;absolute extrusion mode
; Ender 3 Custom Start G-code
G92 E0 ; Reset Extruder
G28 ; Home all axes
G1 Z2.0 F3000 ; Move Z Axis up little to prevent scratching of Heat Bed
G1 X0.1 Y20 Z0.3 F5000.0 ; Move to start position
G1 X0.1 Y200.0 Z0.3 F1500.0 E15 ; Draw the first line
G1 X0.4 Y200.0 Z0.3 F5000.0 ; Move to side a little
G1 X0.4 Y20 Z0.3 F1500.0 E30 ; Draw the second line
G92 E0 ; Reset Extruder
G1 Z2.0 F3000 ; Move Z Axis up little to prevent scratching of Heat Bed
G1 X5 Y20 Z0.3 F5000.0 ; Move over to prevent blob squish
G92 E0
G92 E0
G1 F2700 E-5
;LAYER_COUNT:49
;LAYER:0
M107
G0 F6000 X134.498 Y51.5 Z0.2
;TYPE:SKIRT
G1 F2700 E0
G1 F1200 X134.391 Y51.868 E0.01275
G1 X134.361 Y52.945 E0.04858
G1 X134.621 Y53.979 E0.08404
G1 X135.149 Y54.9 E0.11935
G1 X135.832 Y55.585 E0.15153
G1 X136.041 Y55.38 E0.16126
G1 X136.29 Y55.248 E0.17064
G1 X136.566 Y55.19 E0.18002
G1 X136.847 Y55.212 E0.18939
G1 X137.145 Y55.339 E0.20017
G1 X137.946 Y55.545 E0.22767
G1 X138.588 Y55.542 E0.24903
G1 X139.376 Y55.34 E0.27608
G1 X139.577 Y55.239 E0.28357
G1 X139.854 Y55.189 E0.29293
G1 X140.135 Y55.218 E0.30232
G1 X140.396 Y55.324 E0.31169
G1 X140.69 Y55.585 E0.32477
G1 X140.778 Y55.524 E0.32833
G1 X141.164 Y55.159 E0.346
G1 X141.502 Y54.729 E0.36419
G1 X141.821 Y54.179 E0.38534
G1 X142.04 Y53.598 E0.40599
G1 X142.152 Y53.1 E0.42297
G1 X142.195 Y52.541 E0.44161
G1 X142.157 Y51.936 E0.46178
G1 X142.065 Y51.5 E0.4766
G1 X134.498 Y51.5 E0.72828
G0 F6000 X134.197 Y51.1
G1 F1200 X133.992 Y51.806 E0.75273
G1 X133.959 Y52.99 E0.79212
G1 X134.246 Y54.13 E0.83122
G1 X134.828 Y55.143 E0.87008
G1 X135.595 Y55.913 E0.90623
G1 X136.005 Y56.141 E0.92183
G1 X136.036 Y56.005 E0.92647
G1 X136.111 Y55.878 E0.93138
G1 X136.155 Y55.821 E0.93377
G1 X136.318 Y55.676 E0.94103
G1 X136.521 Y55.598 E0.94826
G1 X136.74 Y55.598 E0.95554
G1 X136.963 Y55.689 E0.96355
G1 X137.894 Y55.945 E0.99567
G1 X138.642 Y55.942 E1.02055
G1 X139.521 Y55.716 E1.05073
G1 X139.751 Y55.605 E1.05923
G1 X139.969 Y55.593 E1.06649
G1 X140.176 Y55.659 E1.07372
G1 X140.373 Y55.828 E1.08235
G1 X140.427 Y55.9 E1.08534
G1 X140.524 Y56.095 E1.09259
G1 X140.533 Y56.183 E1.09553
G1 X141.03 Y55.836 E1.11569
G1 X141.459 Y55.431 E1.13531
G1 X141.834 Y54.953 E1.15552
G1 X142.184 Y54.35 E1.17871
G1 X142.426 Y53.707 E1.20156
G1 X142.548 Y53.162 E1.22013
G1 X142.596 Y52.547 E1.24065
G1 X142.554 Y51.877 E1.26298
G1 X142.446 Y51.364 E1.28042
G1 X142.352 Y51.1 E1.28974
G1 X134.197 Y51.1 E1.56097
G0 F6000 X133.593 Y51.746
G1 F1200 X133.558 Y53.033 E1.6038
G1 X133.872 Y54.281 E1.6466
G1 X134.508 Y55.389 E1.68909
G1 X135.353 Y56.237 E1.72891
G1 X135.693 Y56.424 E1.74181
G1 X136.509 Y56.893 E1.77312
G1 X136.581 Y56.965 E1.7765
G1 X136.635 Y57.057 E1.78005
G1 X136.663 Y57.158 E1.78354
G1 X136.662 Y69.335 E2.18855
G1 X136.647 Y69.412 E2.19115
G1 X136.617 Y69.484 E2.19375
G1 X136.573 Y69.548 E2.19633
G1 X134.81 Y71.312 E2.27928
G1 X134.746 Y71.356 E2.28186
G1 X134.674 Y71.386 E2.28446
G1 X134.597 Y71.401 E2.28707
G1 X121.879 Y71.4 E2.71007
G1 X121.738 Y71.341 E2.71515
G1 X121.621 Y71.224 E2.72066
G1 X121.562 Y71.083 E2.72574
G1 X121.561 Y70.601 E2.74177
G1 X116.266 Y70.6 E2.91789
G1 X115.546 Y70.511 E2.94201
G1 X115.422 Y70.446 E2.94667
G1 X115.322 Y70.334 E2.95167
G1 X115.271 Y70.201 E2.9564
G1 X115.27 Y67.799 E3.03629
G1 X115.321 Y67.666 E3.04103
G1 X115.421 Y67.554 E3.04603
G1 X115.545 Y67.489 E3.05068
G1 X116.228 Y67.403 E3.07358
G1 X121.561 Y67.399 E3.25095
G1 X121.562 Y66.9 E3.26755
G1 X121.561 Y62.601 E3.41054
G1 X116.266 Y62.6 E3.58665
G1 X115.546 Y62.511 E3.61078
G1 X115.422 Y62.446 E3.61543
G1 X115.322 Y62.334 E3.62043
G1 X115.271 Y62.201 E3.62517
G1 X115.27 Y59.799 E3.70506
G1 X115.321 Y59.666 E3.7098
G1 X115.421 Y59.554 E3.71479
G1 X115.545 Y59.489 E3.71945
G1 X116.228 Y59.403 E3.74234
G1 X121.561 Y59.399 E3.91972
G1 X121.562 Y49.511 E4.24859
G1 X121.629 Y49.213 E4.25875
G1 X121.679 Y49.122 E4.26221
G1 X121.857 Y48.936 E4.27077
G1 X121.945 Y48.882 E4.2742
G1 X122.2 Y48.808 E4.28303
G1 X122.256 Y48.8 E4.28492
G1 X177.929 Y48.8 E6.13661
G1 X186.256 Y48.799 E6.41356
G1 X186.329 Y48.813 E6.41604
G1 X186.677 Y48.949 E6.42846
G1 X186.774 Y49.029 E6.43265
G1 X186.911 Y49.249 E6.44127
G1 X186.941 Y49.354 E6.4449
G1 X186.962 Y55.399 E6.64596
G1 X192.258 Y55.4 E6.8221
G1 X192.978 Y55.489 E6.84623
G1 X193.102 Y55.554 E6.85089
G1 X193.202 Y55.666 E6.85588
G1 X193.253 Y55.799 E6.86062
G1 X193.254 Y58.201 E6.94051
G1 X193.203 Y58.334 E6.94525
G1 X193.103 Y58.446 E6.95024
G1 X192.979 Y58.511 E6.9549
G1 X192.296 Y58.597 E6.97779
G1 X186.963 Y58.601 E7.15517
G1 X186.962 Y59.1 E7.17177
G1 X186.963 Y63.399 E7.31475
G1 X192.258 Y63.4 E7.49087
G1 X192.978 Y63.489 E7.515
G1 X193.102 Y63.554 E7.51965
G1 X193.202 Y63.666 E7.52465
G1 X193.253 Y63.799 E7.52938
G1 X193.254 Y66.201 E7.60927
G1 X193.203 Y66.334 E7.61401
G1 X193.103 Y66.446 E7.61901
G1 X192.979 Y66.511 E7.62366
G1 X192.296 Y66.597 E7.64656
G1 X186.963 Y66.601 E7.82393
G1 X186.962 Y71.083 E7.97301
G1 X186.903 Y71.224 E7.97809
G1 X186.786 Y71.341 E7.98359
G1 X186.645 Y71.4 E7.98868
G1 X173.927 Y71.401 E8.41168
G1 X173.85 Y71.386 E8.41429
G1 X173.778 Y71.356 E8.41688
G1 X173.714 Y71.312 E8.41947
G1 X171.951 Y69.548 E8.50242
G1 X171.907 Y69.484 E8.505
G1 X171.877 Y69.412 E8.50759
G1 X171.862 Y69.335 E8.5102
G1 X171.861 Y57.164 E8.91501
G1 X171.891 Y57.059 E8.91864
G1 X171.951 Y56.962 E8.92244
G1 X172.032 Y56.888 E8.92609
G1 X172.463 Y56.675 E8.94208
G1 X172.655 Y56.586 E8.94912
G1 X173.285 Y56.146 E8.97467
G1 X173.755 Y55.702 E8.99618
G1 X174.166 Y55.179 E9.0183
G1 X174.548 Y54.519 E9.04367
G1 X174.809 Y53.827 E9.06826
G1 X174.945 Y53.219 E9.08899
G1 X174.997 Y52.553 E9.1112
G1 X174.951 Y51.823 E9.13553
G1 X174.831 Y51.255 E9.15484
G1 X174.638 Y50.71 E9.17407
G1 X165.897 Y50.7 E9.4648
G1 X165.593 Y51.746 E9.50103
G1 X165.558 Y53.033 E9.54385
G1 X165.872 Y54.281 E9.58665
G1 X166.508 Y55.389 E9.62914
G1 X167.353 Y56.237 E9.66896
G1 X167.693 Y56.424 E9.68187
G1 X168.509 Y56.893 E9.71317
G1 X168.581 Y56.965 E9.71656
G1 X168.635 Y57.057 E9.72011
G1 X168.663 Y57.158 E9.72359
G1 X168.662 Y69.335 E10.1286
G1 X168.647 Y69.412 E10.13121
G1 X168.617 Y69.484 E10.1338
G1 X168.573 Y69.548 E10.13639
G1 X166.81 Y71.312 E10.21934
G1 X166.746 Y71.356 E10.22192
G1 X166.674 Y71.386 E10.22451
G1 X166.597 Y71.401 E10.22712
G1 X141.927 Y71.4 E11.04765
G1 X141.85 Y71.385 E11.05026
G1 X141.778 Y71.355 E11.05285
G1 X141.714 Y71.311 E11.05544
G1 X139.951 Y69.548 E11.13836
G1 X139.907 Y69.484 E11.14095
G1 X139.877 Y69.412 E11.14354
G1 X139.862 Y69.335 E11.14615
G1 X139.861 Y57.164 E11.55096
G1 X139.891 Y57.059 E11.55459
G1 X139.951 Y56.962 E11.55838
G1 X140.032 Y56.888 E11.56203
G1 X140.463 Y56.675 E11.57802
G1 X140.655 Y56.586 E11.58506
G1 X141.285 Y56.146 E11.61062
G1 X141.755 Y55.702 E11.63213
G1 X142.166 Y55.179 E11.65425
G1 X142.548 Y54.519 E11.67961
G1 X142.809 Y53.827 E11.70421
G1 X142.945 Y53.219 E11.72493
G1 X142.997 Y52.553 E11.74715
G1 X142.951 Y51.823 E11.77148
G1 X142.831 Y51.255 E11.79079
G1 X142.638 Y50.71 E11.81002
G1 X133.897 Y50.7 E12.10075
G1 X133.593 Y51.746 E12.13697
G1 F2700 E7.13697
G0 F6000 X134.035 Y51.889
G0 X136.575 Y55.996
G1 F2700 E12.13697
G1 F1200 X136.741 Y56.022 E12.14256
G1 X136.837 Y56.086 E12.1464
G1 X137.846 Y56.345 E12.18105
G1 X138.691 Y56.342 E12.20915
G1 X139.69 Y56.085 E12.24346
G1 X139.779 Y56.024 E12.24705
G1 X139.899 Y55.988 E12.25122
G1 X140.053 Y56.068 E12.25699
G1 X140.107 Y56.14 E12.25998
G1 X140.147 Y56.258 E12.26413
G1 X140.109 Y56.377 E12.26828
G1 X140.036 Y56.439 E12.27147
G1 X139.701 Y56.605 E12.2839
G1 X139.461 Y56.993 E12.29908
G1 X139.462 Y69.453 E12.7135
G1 X139.583 Y69.747 E12.72407
G1 X141.515 Y71.679 E12.81495
G1 X141.809 Y71.8 E12.82552
G1 X166.715 Y71.801 E13.6539
G1 X167.009 Y71.68 E13.66447
G1 X168.941 Y69.747 E13.75537
G1 X169.062 Y69.453 E13.76595
G1 X169.063 Y56.996 E14.18027
G1 X168.848 Y56.625 E14.19453
G1 X168.487 Y56.419 E14.20835
G1 X168.403 Y56.326 E14.21252
G1 X168.391 Y56.202 E14.21667
G1 X168.428 Y56.123 E14.21957
G1 X168.472 Y56.066 E14.22196
G1 X168.575 Y55.996 E14.2261
G1 X168.741 Y56.022 E14.23169
G1 X168.837 Y56.086 E14.23553
G1 X169.846 Y56.345 E14.27018
G1 X170.691 Y56.342 E14.29828
G1 X171.723 Y56.077 E14.33372
G1 X171.934 Y56.06 E14.34076
G1 X172.055 Y56.092 E14.34492
G1 X172.134 Y56.189 E14.34908
G1 X172.14 Y56.314 E14.35325
G1 X172.036 Y56.439 E14.35866
G1 X171.701 Y56.605 E14.37109
G1 X171.461 Y56.993 E14.38626
G1 X171.462 Y69.453 E14.80069
G1 X171.583 Y69.747 E14.81126
G1 X173.515 Y71.68 E14.90216
G1 X173.809 Y71.801 E14.91273
G1 X186.922 Y71.8 E15.34887
G1 X187.041 Y71.839 E15.35304
G1 X187.122 Y72 E15.35903
G1 X187.123 Y81 E15.65837
G1 X187.084 Y81.119 E15.66254
G1 X186.923 Y81.2 E15.66853
G1 X173.78 Y81.2 E16.10567
G1 X173.486 Y81.321 E16.11625
G1 X171.583 Y83.224 E16.20576
G1 X171.462 Y83.517 E16.2163
G1 X171.461 Y97.007 E16.66498
G1 X171.701 Y97.395 E16.68015
G1 X172.037 Y97.561 E16.69262
G1 X172.126 Y97.648 E16.69676
G1 X172.146 Y97.771 E16.7009
G1 X172.109 Y97.859 E16.70408
G1 X172.058 Y97.928 E16.70693
G1 X171.956 Y98 E16.71108
G1 X171.786 Y97.975 E16.7168
G1 X171.69 Y97.911 E16.72064
G1 X170.68 Y97.655 E16.75529
G1 X169.836 Y97.658 E16.78336
G1 X168.832 Y97.914 E16.81783
G1 X168.742 Y97.974 E16.82142
G1 X168.622 Y98.008 E16.82557
G1 X168.475 Y97.933 E16.83106
G1 X168.432 Y97.879 E16.83336
G1 X168.388 Y97.761 E16.83754
G1 X168.423 Y97.641 E16.8417
G1 X168.489 Y97.58 E16.84469
G1 X168.848 Y97.375 E16.85844
G1 X169.063 Y97.003 E16.87273
G1 X169.063 Y83.517 E17.32128
G1 X168.942 Y83.223 E17.33185
G1 X167.039 Y81.321 E17.42134
G1 X166.745 Y81.2 E17.43191
G1 X141.78 Y81.2 E18.26225
G1 X141.486 Y81.321 E18.27283
G1 X139.583 Y83.224 E18.36234
G1 X139.462 Y83.517 E18.37288
G1 X139.461 Y97.007 E18.82156
G1 X139.701 Y97.395 E18.83674
G1 X140.037 Y97.561 E18.8492
G1 X140.126 Y97.648 E18.85334
G1 X140.146 Y97.771 E18.85749
G1 X140.109 Y97.859 E18.86066
G1 X140.058 Y97.928 E18.86351
G1 X139.956 Y98 E18.86767
G1 X139.786 Y97.975 E18.87338
G1 X139.69 Y97.911 E18.87722
G1 X138.68 Y97.655 E18.91187
G1 X137.836 Y97.658 E18.93995
G1 X136.832 Y97.914 E18.97441
G1 X136.742 Y97.974 E18.97801
G1 X136.622 Y98.008 E18.98215
G1 X136.475 Y97.933 E18.98764
G1 X136.432 Y97.879 E18.98994
G1 X136.388 Y97.761 E18.99413
G1 X136.423 Y97.641 E18.99828
G1 X136.489 Y97.58 E19.00127
G1 X136.848 Y97.375 E19.01502
G1 X137.063 Y97.003 E19.02931
G1 X137.063 Y83.517 E19.47786
G1 X136.942 Y83.224 E19.4884
G1 X135.04 Y81.322 E19.57787
G1 X134.747 Y81.199 E19.58844
G1 X121.602 Y81.2 E20.02564
G1 X121.483 Y81.161 E20.02981
G1 X121.402 Y81 E20.0358
G1 X121.401 Y72 E20.33514
G1 X121.44 Y71.881 E20.33931
G1 X121.601 Y71.8 E20.3453
G1 X134.715 Y71.801 E20.78148
G1 X135.009 Y71.68 E20.79205
G1 X136.941 Y69.747 E20.88295
G1 X137.062 Y69.453 E20.89352
G1 X137.063 Y56.996 E21.30784
G1 X136.848 Y56.625 E21.32211
G1 X136.487 Y56.419 E21.33593
G1 X136.403 Y56.326 E21.3401
G1 X136.391 Y56.202 E21.34424
G1 X136.428 Y56.123 E21.34714
G1 X136.472 Y56.066 E21.34954
G1 X136.575 Y55.996 E21.35368
G0 F6000 X137.306 Y56.619
G1 F1200 X137.771 Y56.739 E21.36965
G1 X137.822 Y56.745 E21.37136
G1 X138.717 Y56.742 E21.40113
G1 X139.223 Y56.619 E21.41845
G1 X139.091 Y56.832 E21.42678
G1 X139.061 Y56.937 E21.43042
G1 X139.062 Y69.492 E21.848
G1 X139.077 Y69.568 E21.85057
G1 X139.228 Y69.935 E21.86377
G1 X139.272 Y70 E21.86638
G1 X141.262 Y71.99 E21.95999
G1 X141.327 Y72.034 E21.9626
G1 X141.694 Y72.185 E21.9758
G1 X141.77 Y72.2 E21.97837
G1 X166.754 Y72.201 E22.80934
G1 X166.83 Y72.186 E22.81192
G1 X167.197 Y72.035 E22.82512
G1 X167.262 Y71.991 E22.82773
G1 X169.252 Y70 E22.92136
G1 X169.296 Y69.935 E22.92397
G1 X169.447 Y69.568 E22.93717
G1 X169.462 Y69.492 E22.93974
G1 X169.463 Y56.944 E23.35709
G1 X169.436 Y56.844 E23.36054
G1 X169.306 Y56.619 E23.36918
G1 X169.771 Y56.739 E23.38515
G1 X169.822 Y56.745 E23.38686
G1 X170.717 Y56.742 E23.41663
G1 X171.223 Y56.619 E23.43395
G1 X171.091 Y56.832 E23.44228
G1 X171.061 Y56.937 E23.44592
G1 X171.062 Y69.492 E23.8635
G1 X171.077 Y69.568 E23.86607
G1 X171.228 Y69.935 E23.87927
G1 X171.272 Y70 E23.88188
G1 X173.262 Y71.991 E23.97551
G1 X173.327 Y72.035 E23.97812
G1 X173.694 Y72.186 E23.99132
G1 X173.77 Y72.201 E23.9939
G1 X186.722 Y72.2 E24.42468
G1 X186.723 Y80.8 E24.71072
G1 X173.741 Y80.8 E25.1425
G1 X173.665 Y80.815 E25.14508
G1 X173.298 Y80.966 E25.15828
G1 X173.233 Y81.01 E25.16089
G1 X171.272 Y82.971 E25.25313
G1 X171.228 Y83.036 E25.25574
G1 X171.077 Y83.403 E25.26894
G1 X171.062 Y83.479 E25.27151
G1 X171.061 Y97.063 E25.72332
G1 X171.091 Y97.168 E25.72695
G1 X171.222 Y97.38 E25.73524
G1 X170.753 Y97.261 E25.75133
G1 X170.703 Y97.255 E25.75301
G1 X169.811 Y97.258 E25.78268
G1 X169.306 Y97.381 E25.79996
G1 X169.436 Y97.156 E25.80861
G1 X169.463 Y97.056 E25.81205
G1 X169.463 Y83.478 E26.26366
G1 X169.448 Y83.402 E26.26623
G1 X169.297 Y83.035 E26.27943
G1 X169.253 Y82.97 E26.28204
G1 X167.292 Y81.01 E26.37426
G1 X167.227 Y80.966 E26.37687
G1 X166.86 Y80.815 E26.39007
G1 X166.784 Y80.8 E26.39265
G1 X141.741 Y80.8 E27.22558
G1 X141.665 Y80.815 E27.22816
G1 X141.298 Y80.966 E27.24136
G1 X141.233 Y81.01 E27.24397
G1 X139.272 Y82.971 E27.33621
G1 X139.228 Y83.036 E27.33882
G1 X139.077 Y83.403 E27.35202
G1 X139.062 Y83.479 E27.35459
G1 X139.061 Y97.063 E27.8064
G1 X139.091 Y97.168 E27.81003
G1 X139.222 Y97.38 E27.81832
G1 X138.753 Y97.261 E27.83441
G1 X138.703 Y97.255 E27.83609
G1 X137.811 Y97.258 E27.86576
G1 X137.306 Y97.381 E27.88304
G1 X137.436 Y97.156 E27.89169
G1 X137.463 Y97.056 E27.89513
G1 X137.463 Y83.479 E28.3467
G1 X137.448 Y83.403 E28.34928
G1 X137.297 Y83.036 E28.36248
G1 X137.253 Y82.971 E28.36509
G1 X135.294 Y81.012 E28.45724
G1 X135.23 Y80.969 E28.4598
G1 X134.863 Y80.815 E28.47304
G1 X134.786 Y80.799 E28.47565
G1 X121.802 Y80.8 E28.9075
G1 X121.801 Y72.2 E29.19354
G1 X134.754 Y72.201 E29.62436
G1 X134.83 Y72.186 E29.62694
G1 X135.197 Y72.035 E29.64014
G1 X135.262 Y71.991 E29.64275
G1 X137.252 Y70 E29.73637
G1 X137.296 Y69.935 E29.73898
G1 X137.447 Y69.568 E29.75218
G1 X137.462 Y69.492 E29.75476
G1 X137.463 Y56.944 E30.17211
G1 X137.436 Y56.844 E30.17555
G1 X137.306 Y56.619 E30.1842
G0 F6000 X137.863 Y57.145
G1 F1200 X138.661 Y57.142 E30.21074
G1 X138.662 Y69.492 E30.6215
G1 X138.707 Y69.72 E30.62923
G1 X138.858 Y70.087 E30.64243
G1 X138.989 Y70.283 E30.65027
G1 X140.979 Y72.273 E30.74387
G1 X141.175 Y72.404 E30.75171
G1 X141.542 Y72.555 E30.76491
G1 X141.77 Y72.6 E30.77264
G1 X166.754 Y72.601 E31.60361
G1 X166.982 Y72.556 E31.61134
G1 X167.349 Y72.405 E31.62454
G1 X167.545 Y72.274 E31.63238
G1 X169.535 Y70.283 E31.72601
G1 X169.666 Y70.087 E31.73385
G1 X169.817 Y69.72 E31.74705
G1 X169.862 Y69.492 E31.75478
G1 X169.863 Y57.145 E32.16544
G1 X170.661 Y57.142 E32.19199
G1 X170.662 Y69.492 E32.60275
G1 X170.707 Y69.72 E32.61048
G1 X170.858 Y70.087 E32.62368
G1 X170.989 Y70.283 E32.63152
G1 X172.979 Y72.274 E32.72515
G1 X173.175 Y72.405 E32.73299
G1 X173.542 Y72.556 E32.74619
G1 X173.77 Y72.601 E32.75392
G1 X186.322 Y72.6 E33.1714
G1 X186.323 Y80.4 E33.43083
G1 X173.741 Y80.4 E33.8493
G1 X173.513 Y80.445 E33.85703
G1 X173.146 Y80.596 E33.87023
G1 X172.95 Y80.727 E33.87807
G1 X170.989 Y82.688 E33.97031
G1 X170.858 Y82.884 E33.97815
G1 X170.707 Y83.251 E33.99135
G1 X170.662 Y83.479 E33.99908
G1 X170.661 Y96.855 E34.44397
G1 X169.863 Y96.858 E34.47051
G1 X169.863 Y83.478 E34.91553
G1 X169.818 Y83.25 E34.92326
G1 X169.667 Y82.883 E34.93646
G1 X169.536 Y82.687 E34.9443
G1 X167.575 Y80.727 E35.03652
G1 X167.379 Y80.596 E35.04436
G1 X167.012 Y80.445 E35.05756
G1 X166.784 Y80.4 E35.06529
G1 X141.741 Y80.4 E35.89822
G1 X141.513 Y80.445 E35.90595
G1 X141.146 Y80.596 E35.91915
G1 X140.95 Y80.727 E35.92699
G1 X138.989 Y82.688 E36.01923
G1 X138.858 Y82.884 E36.02707
G1 X138.707 Y83.251 E36.04027
G1 X138.662 Y83.479 E36.048
G1 X138.661 Y96.855 E36.49289
