;FLAVOR:Marlin
;TIME:7432
;Filament used: 4.88154m
;Layer height: 0.16
;MINX:142.21
;MINY:21.682
;MINZ:0.2
;MAXX:212.6
;MAXY:89.072
;MAXZ:13.48
;Generated with Cura_SteamEngine 4.5.0
M140 S110
M105
M190 S110
M104 S250
M105
M109 S250
M82 ;absolute extrusion mode
; Ender 3 Custom Start G-code
G92 E0 ; Reset Extruder
G28 ; Home all axes
G1 Z2.0 F3000 ; Move Z Axis up little to prevent scratching of Heat Bed
G1 X0.1 Y20 Z0.3 F5000.0 ; Move to start position
G1 X0.1 Y200.0 Z0.3 F1500.0 E15 ; Draw the first line
G1 X0.4 Y200.0 Z0.3 F5000.0 ; Move to side a little
G1 X0.4 Y20 Z0.3 F1500.0 E30 ; Draw the second line
G92 E0 ; Reset Extruder
G1 Z2.0 F3000 ; Move Z Axis up little to prevent scratching of Heat Bed
G1 X5 Y20 Z0.3 F5000.0 ; Move over to prevent blob squish
G92 E0
G92 E0
G1 F1500 E-6.5
;LAYER_COUNT:84
;LAYER:0
M107
G0 F6000 X142.362 Y26.2 Z0.2
;TYPE:SKIRT
G1 F1500 E0
G1 F600 X142.436 Y25.895 E0.01044
G1 X142.624 Y25.291 E0.03148
G1 X142.886 Y24.716 E0.05249
G1 X143.219 Y24.179 E0.07351
G1 X143.505 Y23.812 E0.08899
G1 X143.641 Y23.654 E0.09592
G1 X144.17 Y23.126 E0.12078
G1 X144.342 Y22.978 E0.12833
G1 X144.846 Y22.597 E0.14934
G1 X145.394 Y22.282 E0.17036
G1 X145.988 Y22.036 E0.19175
G1 X146.24 Y21.95 E0.2006
G1 X146.85 Y21.784 E0.22163
G1 X147.476 Y21.696 E0.24265
G1 X147.856 Y21.682 E0.2553
G1 X203.365 Y21.693 E2.10154
G1 X206.904 Y21.694 E2.21925
G1 X207.535 Y21.734 E2.24028
G1 X208.093 Y21.838 E2.25915
G1 X208.395 Y21.912 E2.2695
G1 X208.998 Y22.101 E2.29051
G1 X209.573 Y22.364 E2.31154
G1 X210.131 Y22.714 E2.33345
G1 X210.282 Y22.823 E2.33965
G1 X210.771 Y23.225 E2.3607
G1 X211.204 Y23.685 E2.38171
G1 X211.46 Y24.021 E2.39576
G1 X211.595 Y24.215 E2.40362
G1 X211.923 Y24.756 E2.42467
G1 X212.091 Y25.112 E2.43776
G1 X212.2 Y25.368 E2.44701
G1 X212.411 Y25.964 E2.46804
G1 X212.544 Y26.582 E2.48907
G1 X212.6 Y27.328 E2.51395
G1 X212.588 Y83.376 E4.37811
G1 X212.548 Y84.007 E4.39914
G1 X212.446 Y84.558 E4.41778
G1 X212.372 Y84.862 E4.42819
G1 X212.184 Y85.465 E4.44919
G1 X211.921 Y86.04 E4.47022
G1 X211.588 Y86.577 E4.49124
G1 X211.314 Y86.929 E4.50608
G1 X211.178 Y87.088 E4.51304
G1 X210.639 Y87.628 E4.53841
G1 X210.467 Y87.776 E4.54596
G1 X209.963 Y88.157 E4.56697
G1 X209.415 Y88.472 E4.588
G1 X208.827 Y88.716 E4.60917
G1 X208.576 Y88.802 E4.618
G1 X207.966 Y88.969 E4.63903
G1 X207.34 Y89.057 E4.66006
G1 X206.954 Y89.072 E4.6729
G1 X147.906 Y89.061 E6.63685
G1 X147.275 Y89.021 E6.65788
G1 X146.709 Y88.915 E6.67703
G1 X146.405 Y88.84 E6.68744
G1 X145.802 Y88.651 E6.70846
G1 X145.228 Y88.386 E6.72949
G1 X144.677 Y88.04 E6.75113
G1 X144.526 Y87.931 E6.75732
G1 X144.037 Y87.529 E6.77838
G1 X143.604 Y87.069 E6.79939
G1 X143.328 Y86.704 E6.81461
G1 X143.195 Y86.51 E6.82243
G1 X142.871 Y85.967 E6.84346
G1 X142.716 Y85.635 E6.85565
G1 X142.607 Y85.378 E6.86494
G1 X142.397 Y84.782 E6.88595
G1 X142.265 Y84.164 E6.90697
G1 X142.21 Y83.425 E6.93162
G1 X142.221 Y27.378 E8.79575
G1 X142.261 Y26.747 E8.81678
G1 X142.362 Y26.2 E8.83528
G0 F6000 X142.751 Y26.294
G1 F600 X142.825 Y25.989 E8.84572
G1 X143.006 Y25.411 E8.86586
G1 X143.262 Y24.861 E8.88604
G1 X143.588 Y24.35 E8.9062
G1 X143.809 Y24.073 E8.91799
G1 X143.945 Y23.915 E8.92492
G1 X144.431 Y23.429 E8.94778
G1 X144.603 Y23.281 E8.95533
G1 X145.087 Y22.917 E8.97547
G1 X145.616 Y22.619 E8.99566
G1 X146.117 Y22.415 E9.01366
G1 X146.369 Y22.329 E9.02251
G1 X146.955 Y22.171 E9.0427
G1 X147.856 Y22.082 E9.07281
G1 X203.365 Y22.093 E10.91905
G1 X206.904 Y22.094 E11.03676
G1 X207.509 Y22.134 E11.05692
G1 X207.998 Y22.226 E11.07347
G1 X208.3 Y22.3 E11.08381
G1 X208.878 Y22.483 E11.10398
G1 X209.427 Y22.74 E11.12414
G1 X209.897 Y23.038 E11.14265
G1 X210.048 Y23.147 E11.14884
G1 X210.516 Y23.534 E11.16904
G1 X210.928 Y23.978 E11.18919
G1 X211.132 Y24.25 E11.2005
G1 X211.267 Y24.444 E11.20836
G1 X211.58 Y24.963 E11.22852
G1 X211.723 Y25.269 E11.23975
G1 X211.832 Y25.525 E11.249
G1 X212.033 Y26.097 E11.26917
G1 X212.156 Y26.691 E11.28935
G1 X212.2 Y27.328 E11.31058
G1 X212.188 Y83.376 E13.17475
G1 X212.148 Y83.981 E13.19491
G1 X212.057 Y84.463 E13.21123
G1 X211.983 Y84.767 E13.22163
G1 X211.802 Y85.345 E13.24178
G1 X211.545 Y85.895 E13.26197
G1 X211.219 Y86.406 E13.28213
G1 X211.01 Y86.669 E13.2933
G1 X210.874 Y86.828 E13.30026
G1 X210.378 Y87.325 E13.32362
G1 X210.206 Y87.473 E13.33116
G1 X209.722 Y87.837 E13.35131
G1 X209.193 Y88.135 E13.3715
G1 X208.697 Y88.338 E13.38933
G1 X208.446 Y88.424 E13.39815
G1 X207.861 Y88.582 E13.4183
G1 X207.26 Y88.662 E13.43847
G1 X206.954 Y88.672 E13.44865
G1 X147.906 Y88.661 E15.4126
G1 X147.301 Y88.621 E15.43276
G1 X146.805 Y88.527 E15.44955
G1 X146.501 Y88.452 E15.45997
G1 X145.923 Y88.268 E15.48014
G1 X145.375 Y88.01 E15.50029
G1 X144.911 Y87.716 E15.51856
G1 X144.76 Y87.607 E15.52475
G1 X144.292 Y87.22 E15.54495
G1 X143.88 Y86.776 E15.5651
G1 X143.658 Y86.478 E15.57746
G1 X143.525 Y86.284 E15.58528
G1 X143.216 Y85.762 E15.60546
G1 X143.084 Y85.479 E15.61584
G1 X142.975 Y85.222 E15.62513
G1 X142.776 Y84.65 E15.64527
G1 X142.653 Y84.056 E15.66545
G1 X142.61 Y83.425 E15.68648
G1 X142.621 Y27.378 E17.55061
G1 X142.661 Y26.773 E17.57078
G1 X142.751 Y26.294 E17.58699
G0 F6000 X143.139 Y26.389
G1 F600 X143.213 Y26.084 E17.59743
G1 X143.389 Y25.531 E17.61673
G1 X143.638 Y25.009 E17.63597
G1 X144.112 Y24.334 E17.6634
G1 X144.248 Y24.176 E17.67033
G1 X144.692 Y23.732 E17.69122
G1 X144.864 Y23.584 E17.69876
G1 X145.328 Y23.238 E17.71802
G1 X145.835 Y22.958 E17.73728
G1 X146.246 Y22.793 E17.75201
G1 X146.498 Y22.707 E17.76087
G1 X147.058 Y22.558 E17.78014
G1 X147.856 Y22.482 E17.8068
G1 X203.365 Y22.493 E19.65304
G1 X206.904 Y22.494 E19.77075
G1 X207.482 Y22.534 E19.79002
G1 X207.903 Y22.615 E19.80427
G1 X208.205 Y22.689 E19.81462
G1 X208.756 Y22.865 E19.83386
G1 X209.279 Y23.116 E19.85315
G1 X209.663 Y23.363 E19.86834
G1 X209.814 Y23.472 E19.87453
G1 X210.259 Y23.842 E19.89378
G1 X210.803 Y24.478 E19.92161
G1 X210.938 Y24.672 E19.92948
G1 X211.355 Y25.426 E19.95813
G1 X211.464 Y25.682 E19.96739
G1 X211.654 Y26.229 E19.98665
G1 X211.766 Y26.797 E20.0059
G1 X211.8 Y27.328 E20.0236
G1 X211.788 Y83.376 E21.88776
G1 X211.748 Y83.954 E21.90703
G1 X211.669 Y84.368 E21.92105
G1 X211.595 Y84.672 E21.93146
G1 X211.419 Y85.224 E21.95073
G1 X211.17 Y85.747 E21.96999
G1 X210.706 Y86.409 E21.99688
G1 X210.57 Y86.568 E22.00384
G1 X210.117 Y87.022 E22.02517
G1 X209.945 Y87.17 E22.03272
G1 X209.481 Y87.516 E22.05197
G1 X208.974 Y87.796 E22.07123
G1 X208.567 Y87.959 E22.08582
G1 X208.316 Y88.045 E22.09464
G1 X207.757 Y88.195 E22.11389
G1 X206.954 Y88.272 E22.14072
G1 X147.906 Y88.261 E24.10467
G1 X147.328 Y88.221 E24.12394
G1 X146.901 Y88.139 E24.1384
G1 X146.597 Y88.064 E24.14881
G1 X146.045 Y87.887 E24.16809
G1 X145.524 Y87.635 E24.18734
G1 X145.145 Y87.391 E24.20233
G1 X144.994 Y87.282 E24.20853
G1 X144.549 Y86.912 E24.22778
G1 X143.988 Y86.252 E24.25659
G1 X143.855 Y86.058 E24.26441
G1 X143.452 Y85.323 E24.29229
G1 X143.343 Y85.066 E24.30158
G1 X143.155 Y84.518 E24.32084
G1 X143.043 Y83.95 E24.3401
G1 X143.01 Y83.425 E24.3576
G1 X143.021 Y27.378 E26.22173
G1 X143.061 Y26.8 E26.241
G1 X143.139 Y26.389 E26.25491
G0 F6000 X143.528 Y26.483
G1 F600 X143.602 Y26.178 E26.26535
G1 X143.771 Y25.653 E26.28369
G1 X144.013 Y25.159 E26.30199
G1 X144.415 Y24.595 E26.32503
G1 X144.551 Y24.437 E26.33196
G1 X144.952 Y24.036 E26.35082
G1 X145.124 Y23.888 E26.35837
G1 X145.567 Y23.559 E26.37672
G1 X146.053 Y23.299 E26.39505
G1 X146.376 Y23.172 E26.4066
G1 X146.628 Y23.086 E26.41545
G1 X147.161 Y22.946 E26.43378
G1 X147.856 Y22.882 E26.457
G1 X203.365 Y22.893 E28.30323
G1 X206.904 Y22.894 E28.42094
G1 X207.453 Y22.934 E28.43925
G1 X207.807 Y23.003 E28.45124
G1 X208.109 Y23.077 E28.46159
G1 X208.634 Y23.247 E28.47994
G1 X209.128 Y23.49 E28.49825
G1 X209.429 Y23.687 E28.51022
G1 X209.58 Y23.796 E28.51641
G1 X210.002 Y24.15 E28.53473
G1 X210.475 Y24.706 E28.55901
G1 X210.61 Y24.9 E28.56687
G1 X210.987 Y25.582 E28.59279
G1 X211.096 Y25.838 E28.60204
G1 X211.275 Y26.36 E28.6204
G1 X211.376 Y26.901 E28.6387
G1 X211.4 Y27.328 E28.65293
G1 X211.388 Y83.376 E30.51709
G1 X211.348 Y83.925 E30.5354
G1 X211.28 Y84.274 E30.54723
G1 X211.206 Y84.578 E30.55763
G1 X211.037 Y85.102 E30.57594
G1 X210.795 Y85.597 E30.59427
G1 X210.402 Y86.149 E30.61681
G1 X210.266 Y86.308 E30.62377
G1 X209.857 Y86.718 E30.64303
G1 X209.685 Y86.866 E30.65057
G1 X209.242 Y87.195 E30.66893
G1 X208.756 Y87.455 E30.68726
G1 X208.438 Y87.581 E30.69864
G1 X208.187 Y87.667 E30.70746
G1 X207.654 Y87.807 E30.72579
G1 X206.954 Y87.872 E30.74917
G1 X147.906 Y87.861 E32.71312
G1 X147.357 Y87.821 E32.73143
G1 X146.997 Y87.75 E32.74363
G1 X146.693 Y87.675 E32.75404
G1 X146.169 Y87.505 E32.77237
G1 X145.675 Y87.261 E32.79069
G1 X145.379 Y87.067 E32.80246
G1 X145.228 Y86.958 E32.80866
G1 X144.806 Y86.604 E32.82698
G1 X144.318 Y86.026 E32.85214
G1 X144.185 Y85.832 E32.85996
G1 X143.821 Y85.167 E32.88518
G1 X143.712 Y84.91 E32.89446
G1 X143.534 Y84.388 E32.9128
G1 X143.433 Y83.846 E32.93114
G1 X143.41 Y83.425 E32.94516
G1 X143.421 Y27.378 E34.80929
G1 X143.461 Y26.829 E34.8276
G1 X143.528 Y26.483 E34.83932
G0 F6000 X143.917 Y26.577
G1 F600 X143.991 Y26.272 E34.84976
G1 X144.152 Y25.777 E34.86708
G1 X144.387 Y25.312 E34.88441
G1 X144.718 Y24.856 E34.90315
G1 X144.854 Y24.698 E34.91008
G1 X145.213 Y24.339 E34.92697
G1 X145.385 Y24.191 E34.93451
G1 X145.805 Y23.882 E34.95186
G1 X146.505 Y23.55 E34.97762
G1 X146.757 Y23.464 E34.98648
G1 X147.262 Y23.334 E35.00382
G1 X147.856 Y23.282 E35.02366
G1 X203.365 Y23.293 E36.86989
G1 X206.904 Y23.294 E36.9876
G1 X207.423 Y23.334 E37.00491
G1 X207.712 Y23.392 E37.01472
G1 X208.014 Y23.466 E37.02506
G1 X208.509 Y23.628 E37.04238
G1 X208.974 Y23.864 E37.05973
G1 X209.195 Y24.011 E37.06855
G1 X209.346 Y24.12 E37.07475
G1 X209.744 Y24.457 E37.09209
G1 X210.147 Y24.935 E37.11289
G1 X210.282 Y25.129 E37.12075
G1 X210.619 Y25.739 E37.14393
G1 X210.728 Y25.995 E37.15318
G1 X210.895 Y26.489 E37.17053
G1 X210.984 Y27.002 E37.18784
G1 X211 Y27.328 E37.1987
G1 X210.988 Y83.376 E39.06286
G1 X210.948 Y83.895 E39.08018
G1 X210.892 Y84.179 E39.08981
G1 X210.818 Y84.483 E39.10021
G1 X210.656 Y84.979 E39.11757
G1 X210.42 Y85.443 E39.13488
G1 X210.098 Y85.889 E39.15318
G1 X209.962 Y86.048 E39.16014
G1 X209.596 Y86.415 E39.17737
G1 X209.424 Y86.563 E39.18492
G1 X209.004 Y86.872 E39.20226
G1 X208.308 Y87.202 E39.22788
G1 X208.057 Y87.288 E39.23671
G1 X207.553 Y87.419 E39.25403
G1 X206.954 Y87.472 E39.27403
G1 X147.906 Y87.461 E41.23797
G1 X147.387 Y87.421 E41.25529
G1 X147.093 Y87.362 E41.26526
G1 X146.789 Y87.287 E41.27567
G1 X146.294 Y87.124 E41.29301
G1 X145.613 Y86.743 E41.31896
G1 X145.462 Y86.634 E41.32516
G1 X145.064 Y86.297 E41.3425
G1 X144.648 Y85.8 E41.36406
G1 X144.515 Y85.606 E41.37188
G1 X144.189 Y85.011 E41.39445
G1 X144.08 Y84.754 E41.40373
G1 X143.914 Y84.26 E41.42106
G1 X143.825 Y83.746 E41.43841
G1 X143.81 Y83.425 E41.4491
G1 X143.821 Y27.378 E43.31323
G1 X143.861 Y26.859 E43.33055
G1 X143.917 Y26.577 E43.34011
G0 F6000 X144.306 Y26.672
G1 F600 X144.38 Y26.367 E43.35055
G1 X144.533 Y25.902 E43.36683
G1 X144.761 Y25.468 E43.38314
G1 X145.021 Y25.117 E43.39766
G1 X145.157 Y24.959 E43.4046
G1 X145.474 Y24.642 E43.41951
G1 X145.646 Y24.494 E43.42706
G1 X146.042 Y24.206 E43.44334
G1 X146.634 Y23.929 E43.46508
G1 X146.886 Y23.843 E43.47394
G1 X147.361 Y23.723 E43.49023
G1 X147.856 Y23.682 E43.50675
G1 X203.365 Y23.693 E45.35299
G1 X206.904 Y23.694 E45.4707
G1 X207.617 Y23.78 E45.49458
G1 X207.919 Y23.854 E45.50492
G1 X208.383 Y24.009 E45.52119
G1 X208.961 Y24.336 E45.54328
G1 X209.112 Y24.445 E45.54948
G1 X209.484 Y24.762 E45.56573
G1 X209.818 Y25.163 E45.58309
G1 X209.953 Y25.357 E45.59095
G1 X210.251 Y25.896 E45.61144
G1 X210.36 Y26.152 E45.62069
G1 X210.515 Y26.616 E45.63696
G1 X210.6 Y27.328 E45.66081
G1 X210.588 Y83.376 E47.52497
G1 X210.503 Y84.085 E47.54872
G1 X210.429 Y84.389 E47.55913
G1 X210.275 Y84.853 E47.57539
G1 X210.047 Y85.286 E47.59167
G1 X209.794 Y85.629 E47.60584
G1 X209.658 Y85.788 E47.6128
G1 X209.335 Y86.112 E47.62802
G1 X209.163 Y86.26 E47.63557
G1 X208.767 Y86.548 E47.65185
G1 X208.178 Y86.824 E47.67349
G1 X207.927 Y86.91 E47.68231
G1 X207.453 Y87.03 E47.69857
G1 X206.954 Y87.072 E47.71523
G1 X147.906 Y87.061 E49.67917
G1 X147.188 Y86.974 E49.70323
G1 X146.884 Y86.899 E49.71364
G1 X146.42 Y86.743 E49.72993
G1 X145.847 Y86.418 E49.75184
G1 X145.696 Y86.309 E49.75803
G1 X145.324 Y85.992 E49.77429
G1 X144.978 Y85.573 E49.79236
G1 X144.845 Y85.379 E49.80018
G1 X144.557 Y84.854 E49.8201
G1 X144.448 Y84.597 E49.82938
G1 X144.294 Y84.133 E49.84564
G1 X144.21 Y83.425 E49.86936
G1 X144.221 Y27.378 E51.73349
G1 X144.306 Y26.672 E51.75714
G0 F6000 X144.694 Y26.766
G1 F600 X144.768 Y26.461 E51.76758
G1 X144.914 Y26.029 E51.78274
G1 X145.133 Y25.63 E51.79788
G1 X145.324 Y25.378 E51.8084
G1 X145.46 Y25.22 E51.81533
G1 X145.735 Y24.945 E51.82827
G1 X145.907 Y24.797 E51.83582
G1 X146.277 Y24.531 E51.85097
G1 X146.763 Y24.307 E51.86877
G1 X147.015 Y24.221 E51.87763
G1 X147.458 Y24.113 E51.89279
G1 X147.856 Y24.082 E51.90607
G1 X203.365 Y24.093 E53.75231
G1 X206.904 Y24.094 E53.87001
G1 X207.522 Y24.169 E53.89072
G1 X207.824 Y24.243 E53.90106
G1 X208.255 Y24.39 E53.91621
G1 X208.727 Y24.66 E53.93429
G1 X208.878 Y24.769 E53.94049
G1 X209.222 Y25.067 E53.95563
G1 X209.49 Y25.392 E53.96964
G1 X209.625 Y25.586 E53.9775
G1 X209.883 Y26.052 E53.99521
G1 X209.992 Y26.308 E54.00447
G1 X210.133 Y26.742 E54.01965
G1 X210.2 Y27.328 E54.03926
G1 X210.188 Y83.376 E55.90343
G1 X210.114 Y83.99 E55.924
G1 X210.04 Y84.294 E55.9344
G1 X209.894 Y84.725 E55.94954
G1 X209.675 Y85.125 E55.96471
G1 X209.49 Y85.369 E55.97489
G1 X209.354 Y85.528 E55.98185
G1 X209.074 Y85.809 E55.99504
G1 X208.902 Y85.957 E56.00259
G1 X208.532 Y86.223 E56.01775
G1 X208.049 Y86.446 E56.03544
G1 X207.798 Y86.532 E56.04427
G1 X207.355 Y86.641 E56.05944
G1 X206.955 Y86.672 E56.07278
G1 X147.907 Y86.661 E58.03673
G1 X147.284 Y86.585 E58.0576
G1 X146.98 Y86.51 E58.06802
G1 X146.549 Y86.363 E58.08316
G1 X146.081 Y86.094 E58.10112
G1 X145.93 Y85.985 E58.10731
G1 X145.586 Y85.687 E58.12245
G1 X145.308 Y85.347 E58.13706
G1 X145.175 Y85.153 E58.14488
G1 X144.925 Y84.698 E58.16215
G1 X144.816 Y84.441 E58.17143
G1 X144.676 Y84.008 E58.18657
G1 X144.61 Y83.425 E58.20608
G1 X144.621 Y27.378 E60.07021
G1 X144.694 Y26.766 E60.09071
G0 F6000 X145.083 Y26.86
G1 F600 X145.157 Y26.555 E60.10115
G1 X145.294 Y26.159 E60.11509
G1 X145.628 Y25.639 E60.13564
G1 X145.764 Y25.481 E60.14258
G1 X145.996 Y25.248 E60.15351
G1 X146.168 Y25.1 E60.16106
G1 X146.51 Y24.859 E60.17497
G1 X146.892 Y24.686 E60.18892
G1 X147.144 Y24.6 E60.19778
G1 X147.552 Y24.503 E60.21173
G1 X147.855 Y24.482 E60.22183
G1 X203.364 Y24.493 E62.06807
G1 X206.903 Y24.494 E62.18577
G1 X207.427 Y24.557 E62.20333
G1 X207.729 Y24.631 E62.21367
G1 X208.124 Y24.769 E62.22759
G1 X208.493 Y24.984 E62.24179
G1 X208.644 Y25.093 E62.24798
G1 X208.959 Y25.37 E62.26194
G1 X209.162 Y25.62 E62.27265
G1 X209.297 Y25.814 E62.28051
G1 X209.515 Y26.209 E62.29551
G1 X209.624 Y26.465 E62.30477
G1 X209.751 Y26.865 E62.31873
G1 X209.8 Y27.327 E62.33418
G1 X209.788 Y83.375 E64.19834
G1 X209.726 Y83.895 E64.21576
G1 X209.652 Y84.199 E64.22617
G1 X209.514 Y84.595 E64.24011
G1 X209.186 Y85.109 E64.26039
G1 X209.05 Y85.268 E64.26735
G1 X208.813 Y85.506 E64.27852
G1 X208.641 Y85.654 E64.28607
G1 X208.299 Y85.895 E64.29999
G1 X207.919 Y86.067 E64.31386
G1 X207.668 Y86.153 E64.32268
G1 X207.261 Y86.251 E64.33661
G1 X206.955 Y86.272 E64.34681
G1 X147.907 Y86.261 E66.31075
G1 X147.38 Y86.197 E66.32841
G1 X147.076 Y86.122 E66.33883
G1 X146.681 Y85.983 E66.35275
G1 X146.315 Y85.77 E66.36684
G1 X146.164 Y85.661 E66.37303
G1 X145.849 Y85.384 E66.38698
G1 X145.637 Y85.121 E66.39822
G1 X145.504 Y84.927 E66.40604
G1 X145.294 Y84.542 E66.42063
G1 X145.185 Y84.285 E66.42991
G1 X145.058 Y83.885 E66.44387
G1 X145.01 Y83.426 E66.45922
G1 X145.021 Y27.379 E68.32335
G1 X145.083 Y26.86 E68.34074
G0 F6000 X145.472 Y26.955
G1 F600 X145.546 Y26.65 E68.35118
G1 X145.673 Y26.293 E68.36378
G1 X145.931 Y25.9 E68.37941
