;FLAVOR:Marlin
;TIME:8741
;Filament used: 5.62702m
;Layer height: 0.16
;MINX:68.118
;MINY:39.033
;MINZ:0.2
;MAXX:167.351
;MAXY:105.264
;MAXZ:5.96
;Generated with Cura_SteamEngine 4.6.0
M140 S110
M105
M190 S110
M104 S250
M105
M109 S250
M82 ;absolute extrusion mode
; Ender 3 Custom Start G-code
G92 E0 ; Reset Extruder
G28 ; Home all axes
G1 Z2.0 F3000 ; Move Z Axis up little to prevent scratching of Heat Bed
G1 X0.1 Y20 Z0.3 F5000.0 ; Move to start position
G1 X0.1 Y200.0 Z0.3 F1500.0 E15 ; Draw the first line
G1 X0.4 Y200.0 Z0.3 F5000.0 ; Move to side a little
G1 X0.4 Y20 Z0.3 F1500.0 E30 ; Draw the second line
G92 E0 ; Reset Extruder
G1 Z2.0 F3000 ; Move Z Axis up little to prevent scratching of Heat Bed
G1 X5 Y20 Z0.3 F5000.0 ; Move over to prevent blob squish
G92 E0
G92 E0
G1 F1500 E-6.5
;LAYER_COUNT:37
;LAYER:0
M107
G0 F6000 X69.372 Y42.875 Z0.2
;TYPE:SKIRT
G1 F1500 E0
G1 F1200 X69.814 Y42.199 E0.02686
G1 X69.904 Y42.083 E0.03175
G1 X70.231 Y41.702 E0.04845
G1 X70.562 Y41.354 E0.06442
G1 X71.026 Y40.924 E0.08546
G1 X71.482 Y40.594 E0.10418
G1 X71.913 Y40.317 E0.12122
G1 X72.259 Y40.113 E0.13458
G1 X72.998 Y39.718 E0.16245
G1 X73.573 Y39.456 E0.18347
G1 X74.177 Y39.269 E0.2045
G1 X74.799 Y39.159 E0.22551
G1 X75.355 Y39.128 E0.24403
G1 X75.641 Y39.128 E0.25354
G1 X75.988 Y39.066 E0.26527
G1 X76.558 Y39.033 E0.28426
G1 X79.107 Y39.033 E0.36904
G1 X79.738 Y39.073 E0.39006
G1 X80.539 Y39.242 E0.41729
G1 X81.944 Y39.662 E0.46607
G1 X129.278 Y39.653 E2.0404
G1 X153.519 Y39.657 E2.84666
G1 X154.554 Y39.343 E2.88263
G1 X155.169 Y39.198 E2.90365
G1 X155.338 Y39.184 E2.90929
G1 X155.366 Y39.177 E2.91025
G1 X155.988 Y39.066 E2.93126
G1 X156.558 Y39.033 E2.95025
G1 X159.109 Y39.033 E3.0351
G1 X159.74 Y39.073 E3.05613
G1 X160.502 Y39.231 E3.08201
G1 X160.786 Y39.313 E3.09185
G1 X161.338 Y39.41 E3.11049
G1 X161.649 Y39.495 E3.12121
G1 X162.073 Y39.626 E3.13597
G1 X162.655 Y39.846 E3.15666
G1 X162.748 Y39.888 E3.16006
G1 X163.061 Y40.043 E3.17167
G1 X163.488 Y40.273 E3.18781
G1 X164.153 Y40.702 E3.21413
G1 X164.276 Y40.796 E3.21928
G1 X164.7 Y41.16 E3.23786
G1 X165.039 Y41.485 E3.25348
G1 X165.467 Y41.95 E3.2745
G1 X165.785 Y42.391 E3.29259
G1 X166.08 Y42.85 E3.31073
G1 X166.241 Y43.119 E3.32116
G1 X166.61 Y43.781 E3.34637
G1 X166.883 Y44.351 E3.36739
G1 X167.081 Y44.951 E3.3884
G1 X167.201 Y45.572 E3.40944
G1 X167.243 Y46.171 E3.42941
G1 X167.245 Y46.448 E3.43862
G1 X167.31 Y46.797 E3.45043
G1 X167.346 Y47.388 E3.47013
G1 X167.349 Y49.917 E3.55424
G1 X167.31 Y50.548 E3.57527
G1 X167.206 Y51.11 E3.59428
G1 X167.147 Y51.35 E3.6025
G1 X167.121 Y51.483 E3.607
G1 X167.053 Y51.777 E3.61704
G1 X166.725 Y53.03 E3.66012
G1 X166.726 Y91.327 E4.93388
G1 X167.038 Y92.458 E4.97291
G1 X167.155 Y92.99 E4.99102
G1 X167.208 Y93.207 E4.99845
G1 X167.319 Y93.829 E5.01947
G1 X167.351 Y94.404 E5.03862
G1 X167.347 Y96.957 E5.12353
G1 X167.306 Y97.588 E5.14457
G1 X167.242 Y97.926 E5.15601
G1 X167.239 Y98.127 E5.16269
G1 X167.19 Y98.757 E5.18371
G1 X167.061 Y99.376 E5.20474
G1 X166.855 Y99.974 E5.22578
G1 X166.633 Y100.439 E5.24292
G1 X166.104 Y101.412 E5.27975
G1 X165.697 Y102.043 E5.30473
G1 X165.594 Y102.179 E5.3104
G1 X165.219 Y102.619 E5.32963
G1 X164.9 Y102.952 E5.34497
G1 X164.434 Y103.38 E5.36601
G1 X164.002 Y103.693 E5.38375
G1 X163.553 Y103.983 E5.40153
G1 X162.778 Y104.392 E5.43068
G1 X162.407 Y104.548 E5.44406
G1 X161.987 Y104.703 E5.45895
G1 X161.827 Y104.754 E5.46454
G1 X161.333 Y104.884 E5.48153
G1 X161.032 Y104.947 E5.49176
G1 X160.798 Y104.981 E5.49962
G1 X160.469 Y105.074 E5.51099
G1 X159.851 Y105.208 E5.53203
G1 X159.105 Y105.264 E5.55691
G1 X156.559 Y105.264 E5.64159
G1 X155.928 Y105.224 E5.66262
G1 X155.367 Y105.12 E5.68159
G1 X155.246 Y105.09 E5.68574
G1 X154.788 Y105.014 E5.70118
G1 X154.456 Y104.926 E5.71261
G1 X153.522 Y104.641 E5.74508
G1 X129.04 Y104.644 E6.55936
G1 X129.038 Y104.644 E6.55943
G1 X81.937 Y104.636 E8.12601
G1 X80.529 Y105.055 E8.17487
G1 X79.913 Y105.197 E8.1959
G1 X79.103 Y105.263 E8.22293
G1 X76.557 Y105.263 E8.30761
G1 X75.926 Y105.223 E8.32864
G1 X75.632 Y105.169 E8.33858
G1 X75.347 Y105.169 E8.34806
G1 X74.716 Y105.129 E8.36909
G1 X74.095 Y105.01 E8.39012
G1 X73.495 Y104.813 E8.41112
G1 X72.957 Y104.561 E8.43088
G1 X71.976 Y104.027 E8.46803
G1 X71.448 Y103.696 E8.48876
G1 X71.313 Y103.599 E8.49429
G1 X70.77 Y103.146 E8.51781
G1 X70.427 Y102.817 E8.53361
G1 X69.844 Y102.15 E8.56308
G1 X69.836 Y102.139 E8.56353
G1 X69.677 Y101.906 E8.57291
G1 X69.4 Y101.476 E8.58992
G1 X69.195 Y101.128 E8.60336
G1 X68.818 Y100.424 E8.62992
G1 X68.556 Y99.849 E8.65094
G1 X68.368 Y99.246 E8.67194
G1 X68.257 Y98.623 E8.69299
G1 X68.226 Y98.1 E8.71042
G1 X68.224 Y97.799 E8.72043
G1 X68.161 Y97.465 E8.73173
G1 X68.123 Y96.861 E8.75186
G1 X68.119 Y94.503 E8.83029
G1 X68.158 Y93.873 E8.85128
G1 X68.238 Y93.434 E8.86613
G1 X68.248 Y93.262 E8.87186
G1 X68.365 Y92.641 E8.89287
G1 X68.559 Y92.039 E8.91391
G1 X68.749 Y91.614 E8.92939
G1 X68.943 Y91.16 E8.94581
G1 X68.945 Y82.198 E9.24389
G1 X68.91 Y82.092 E9.24761
G1 X68.791 Y81.471 E9.26864
G1 X68.751 Y80.841 E9.28963
G1 X68.743 Y52.688 E10.226
G1 X68.632 Y52.435 E10.23519
G1 X68.415 Y51.842 E10.2562
G1 X68.275 Y51.225 E10.27724
G1 X68.258 Y51.008 E10.28448
G1 X68.15 Y50.402 E10.30495
G1 X68.118 Y49.824 E10.32421
G1 X68.123 Y47.466 E10.40263
G1 X68.164 Y46.836 E10.42363
G1 X68.223 Y46.527 E10.43409
G1 X68.225 Y46.219 E10.44434
G1 X68.27 Y45.589 E10.46535
G1 X68.393 Y44.969 E10.48637
G1 X68.594 Y44.37 E10.50738
G1 X68.833 Y43.866 E10.52594
G1 X69.372 Y42.875 E10.56346
G0 F6000 X69.723 Y43.066
G1 F1200 X70.13 Y42.444 E10.58818
G1 X70.22 Y42.328 E10.59306
G1 X70.521 Y41.978 E10.60842
G1 X70.852 Y41.63 E10.62439
G1 X71.298 Y41.219 E10.64456
G1 X71.698 Y40.93 E10.66098
G1 X72.129 Y40.653 E10.67802
G1 X72.448 Y40.466 E10.69032
G1 X73.187 Y40.071 E10.71819
G1 X73.739 Y39.821 E10.73834
G1 X74.319 Y39.646 E10.75849
G1 X74.918 Y39.549 E10.77867
G1 X75.355 Y39.528 E10.79322
G1 X75.675 Y39.528 E10.80387
G1 X76.058 Y39.46 E10.8168
G1 X76.558 Y39.433 E10.83346
G1 X79.107 Y39.433 E10.91824
G1 X79.712 Y39.473 E10.93841
G1 X80.424 Y39.626 E10.96263
G1 X81.883 Y40.062 E11.01327
G1 X129.278 Y40.053 E12.58964
G1 X153.579 Y40.057 E13.39789
G1 X154.67 Y39.726 E13.43581
G1 X155.26 Y39.589 E13.45596
G1 X155.421 Y39.576 E13.46133
G1 X155.461 Y39.566 E13.4627
G1 X156.058 Y39.46 E13.48287
G1 X156.558 Y39.433 E13.49952
G1 X159.109 Y39.433 E13.58437
G1 X159.714 Y39.473 E13.60454
G1 X160.391 Y39.615 E13.62754
G1 X160.702 Y39.705 E13.63831
G1 X161.531 Y39.877 E13.66647
G1 X161.955 Y40.008 E13.68123
G1 X162.49 Y40.211 E13.70026
G1 X162.583 Y40.253 E13.70366
G1 X162.871 Y40.395 E13.71434
G1 X163.298 Y40.625 E13.73047
G1 X163.91 Y41.02 E13.7547
G1 X164.033 Y41.114 E13.75984
G1 X164.423 Y41.448 E13.77692
G1 X164.762 Y41.773 E13.79254
G1 X165.171 Y42.221 E13.81272
G1 X165.449 Y42.607 E13.82854
G1 X165.744 Y43.066 E13.84669
G1 X165.892 Y43.313 E13.85626
G1 X166.261 Y43.975 E13.88147
G1 X166.521 Y44.523 E13.90165
G1 X166.706 Y45.101 E13.92183
G1 X166.814 Y45.697 E13.94198
G1 X166.843 Y46.175 E13.9579
G1 X166.846 Y46.485 E13.96822
G1 X166.916 Y46.869 E13.9812
G1 X166.946 Y47.389 E13.99852
G1 X166.949 Y49.918 E14.08264
G1 X166.91 Y50.523 E14.1028
G1 X166.817 Y51.015 E14.11946
G1 X166.756 Y51.264 E14.12798
G1 X166.728 Y51.406 E14.1328
G1 X166.666 Y51.676 E14.14201
G1 X166.325 Y52.979 E14.18681
G1 X166.326 Y91.382 E15.4641
G1 X166.652 Y92.564 E15.50488
G1 X166.761 Y93.067 E15.522
G1 X166.819 Y93.302 E15.53005
G1 X166.924 Y93.899 E15.55021
G1 X166.951 Y94.403 E15.56699
G1 X166.947 Y96.956 E15.65191
G1 X166.906 Y97.561 E15.67208
G1 X166.842 Y97.891 E15.68326
G1 X166.839 Y98.121 E15.69091
G1 X166.79 Y98.725 E15.71106
G1 X166.662 Y99.318 E15.73124
G1 X166.457 Y99.889 E15.75142
G1 X166.281 Y100.248 E15.76472
G1 X165.752 Y101.221 E15.80155
G1 X165.378 Y101.801 E15.82451
G1 X165.275 Y101.937 E15.83018
G1 X164.93 Y102.342 E15.84788
G1 X164.611 Y102.675 E15.86321
G1 X164.163 Y103.084 E15.88339
G1 X163.785 Y103.357 E15.8989
G1 X163.336 Y103.647 E15.91668
G1 X162.623 Y104.023 E15.94349
G1 X162.252 Y104.179 E15.95687
G1 X161.866 Y104.322 E15.97056
G1 X161.706 Y104.373 E15.97615
G1 X161.251 Y104.492 E15.99179
G1 X160.95 Y104.555 E16.00202
G1 X160.715 Y104.588 E16.00991
G1 X160.36 Y104.689 E16.02219
G1 X159.767 Y104.816 E16.04236
G1 X159.105 Y104.864 E16.06443
G1 X156.559 Y104.864 E16.14911
G1 X155.954 Y104.824 E16.16928
G1 X155.462 Y104.731 E16.18593
G1 X155.258 Y104.681 E16.19292
G1 X154.573 Y104.543 E16.21616
G1 X153.583 Y104.241 E16.25059
G1 X129.04 Y104.244 E17.06689
G1 X129.038 Y104.244 E17.06696
G1 X81.88 Y104.236 E18.63544
G1 X80.415 Y104.672 E18.68628
G1 X79.824 Y104.806 E18.70643
G1 X79.103 Y104.863 E18.73049
G1 X76.557 Y104.863 E18.81517
G1 X75.952 Y104.823 E18.83533
G1 X75.663 Y104.769 E18.84511
G1 X75.347 Y104.769 E18.85562
G1 X74.742 Y104.729 E18.87579
G1 X74.148 Y104.61 E18.89594
G1 X73.574 Y104.414 E18.91611
G1 X73.148 Y104.209 E18.93184
G1 X72.167 Y103.675 E18.96898
G1 X71.682 Y103.371 E18.98802
G1 X71.547 Y103.274 E18.99355
G1 X71.047 Y102.858 E19.01518
G1 X70.704 Y102.529 E19.03099
G1 X70.168 Y101.915 E19.0581
G1 X70.16 Y101.904 E19.05855
G1 X70.013 Y101.689 E19.06722
G1 X69.736 Y101.259 E19.08423
G1 X69.548 Y100.94 E19.09654
G1 X69.171 Y100.236 E19.12311
G1 X68.92 Y99.683 E19.1433
G1 X68.745 Y99.103 E19.16345
G1 X68.647 Y98.505 E19.18361
G1 X68.626 Y98.097 E19.1972
G1 X68.624 Y97.764 E19.20827
G1 X68.555 Y97.392 E19.22086
G1 X68.523 Y96.861 E19.23855
G1 X68.519 Y94.503 E19.31698
G1 X68.558 Y93.898 E19.33714
G1 X68.636 Y93.474 E19.35148
G1 X68.648 Y93.286 E19.35775
G1 X68.765 Y92.691 E19.37791
G1 X69.075 Y91.858 E19.40748
G1 X69.119 Y91.767 E19.41084
G1 X69.343 Y91.241 E19.42985
G1 X69.345 Y82.132 E19.73282
G1 X69.285 Y81.944 E19.73938
G1 X69.179 Y81.347 E19.75955
G1 X69.151 Y80.841 E19.77641
G1 X69.143 Y52.605 E20.71554
G1 X68.998 Y52.275 E20.72753
G1 X68.792 Y51.705 E20.74769
G1 X68.662 Y51.112 E20.76788
G1 X68.648 Y50.917 E20.77438
G1 X68.545 Y50.332 E20.79414
G1 X68.518 Y49.825 E20.81102
G1 X68.523 Y47.467 E20.88945
G1 X68.564 Y46.862 E20.90962
G1 X68.623 Y46.559 E20.91989
G1 X68.625 Y46.222 E20.9311
G1 X68.669 Y45.618 E20.95124
G1 X68.793 Y45.024 E20.97142
G1 X68.993 Y44.452 E20.99157
G1 X69.184 Y44.057 E21.00617
G1 X69.723 Y43.066 E21.04369
G0 F6000 X70.074 Y43.257
G1 F1200 X70.446 Y42.689 E21.06627
G1 X70.536 Y42.573 E21.07115
G1 X70.811 Y42.253 E21.08519
G1 X71.142 Y41.905 E21.10116
G1 X71.569 Y41.514 E21.12042
G1 X71.914 Y41.267 E21.13453
G1 X72.345 Y40.99 E21.15157
G1 X72.636 Y40.819 E21.1628
G1 X73.375 Y40.424 E21.19067
G1 X73.904 Y40.187 E21.20995
G1 X74.46 Y40.025 E21.22921
G1 X75.033 Y39.94 E21.24848
G1 X75.355 Y39.928 E21.25919
G1 X75.707 Y39.928 E21.2709
G1 X76.128 Y39.855 E21.28511
G1 X76.558 Y39.833 E21.29943
G1 X79.107 Y39.833 E21.38421
G1 X79.685 Y39.873 E21.40348
G1 X80.309 Y40.009 E21.42472
G1 X81.825 Y40.462 E21.47735
G1 X129.278 Y40.453 E23.05564
G1 X153.639 Y40.457 E23.86589
G1 X154.786 Y40.109 E23.90576
G1 X155.351 Y39.979 E23.92504
G1 X155.504 Y39.967 E23.93015
G1 X155.557 Y39.954 E23.93196
G1 X156.128 Y39.855 E23.95124
G1 X156.558 Y39.833 E23.96556
G1 X159.109 Y39.833 E24.0504
G1 X159.687 Y39.873 E24.06967
G1 X160.279 Y39.999 E24.08981
G1 X160.61 Y40.095 E24.10127
G1 X160.628 Y40.097 E24.10187
G1 X161.413 Y40.259 E24.12853
G1 X161.837 Y40.39 E24.14329
G1 X162.326 Y40.575 E24.16068
G1 X162.419 Y40.617 E24.16407
G1 X162.682 Y40.747 E24.17383
G1 X163.109 Y40.977 E24.18996
G1 X163.667 Y41.338 E24.21207
G1 X163.79 Y41.432 E24.21722
G1 X164.147 Y41.737 E24.23283
G1 X164.486 Y42.062 E24.24845
G1 X164.875 Y42.491 E24.26771
G1 X165.112 Y42.823 E24.28128
G1 X165.407 Y43.282 E24.29943
G1 X165.543 Y43.508 E24.3082
G1 X165.912 Y44.17 E24.33341
G1 X166.158 Y44.694 E24.35266
G1 X166.33 Y45.248 E24.37196
G1 X166.424 Y45.819 E24.3912
G1 X166.443 Y46.178 E24.40316
G1 X166.446 Y46.521 E24.41457
G1 X166.521 Y46.941 E24.42876
G1 X166.546 Y47.389 E24.44368
G1 X166.549 Y49.918 E24.5278
G1 X166.51 Y50.496 E24.54707
G1 X166.429 Y50.92 E24.56142
G1 X166.365 Y51.183 E24.57043
G1 X166.336 Y51.328 E24.57534
G1 X166.279 Y51.574 E24.58374
G1 X165.925 Y52.927 E24.63026
G1 X165.926 Y91.433 E25.91097
G1 X166.267 Y92.67 E25.95365
G1 X166.368 Y93.141 E25.96967
G1 X166.431 Y93.397 E25.97844
G1 X166.529 Y93.968 E25.99771
G1 X166.551 Y94.403 E26.0122
G1 X166.547 Y96.956 E26.09711
G1 X166.506 Y97.533 E26.11635
G1 X166.444 Y97.85 E26.12709
G1 X166.44 Y98.115 E26.13591
G1 X166.391 Y98.692 E26.15517
G1 X166.263 Y99.257 E26.17444
G1 X165.93 Y100.057 E26.20326
G1 X165.401 Y101.03 E26.24009
G1 X165.059 Y101.56 E26.26107
G1 X164.956 Y101.696 E26.26675
G1 X164.641 Y102.065 E26.28288
G1 X164.322 Y102.398 E26.29822
G1 X163.893 Y102.788 E26.3175
G1 X163.568 Y103.021 E26.33081
G1 X163.119 Y103.311 E26.34858
G1 X162.468 Y103.655 E26.37307
G1 X162.097 Y103.811 E26.38646
G1 X161.745 Y103.941 E26.39894
G1 X161.585 Y103.992 E26.40452
G1 X161.169 Y104.101 E26.41883
G1 X160.868 Y104.164 E26.42906
G1 X160.679 Y104.184 E26.43538
G1 X160.251 Y104.305 E26.45017
G1 X159.684 Y104.424 E26.46944
G1 X159.105 Y104.464 E26.48874
G1 X156.559 Y104.464 E26.57342
G1 X155.981 Y104.424 E26.59269
G1 X155.558 Y104.343 E26.60702
G1 X155.382 Y104.3 E26.61304
G1 X154.69 Y104.16 E26.63653
G1 X153.644 Y103.841 E26.6729
G1 X129.039 Y103.844 E27.49126
G1 X129.038 Y103.844 E27.4913
G1 X81.823 Y103.836 E29.06168
G1 X80.301 Y104.289 E29.11449
G1 X79.736 Y104.415 E29.13375
G1 X79.103 Y104.463 E29.15486
G1 X76.557 Y104.463 E29.23954
G1 X75.979 Y104.423 E29.25881
G1 X75.697 Y104.369 E29.26836
G1 X75.347 Y104.369 E29.28
G1 X74.769 Y104.329 E29.29927
G1 X74.202 Y104.21 E29.31854
G1 X73.657 Y104.014 E29.3378
G1 X73.339 Y103.858 E29.34958
G1 X72.358 Y103.324 E29.38673
G1 X71.915 Y103.046 E29.40413
G1 X71.78 Y102.949 E29.40966
G1 X71.324 Y102.569 E29.4294
G1 X70.981 Y102.24 E29.44521
G1 X70.491 Y101.679 E29.46998
G1 X70.483 Y101.668 E29.47043
G1 X70.349 Y101.473 E29.4783
G1 X70.072 Y101.043 E29.49532
G1 X69.9 Y100.751 E29.50659
G1 X69.523 Y100.047 E29.53315
G1 X69.286 Y99.518 E29.55243
G1 X69.123 Y98.962 E29.5717
G1 X69.039 Y98.389 E29.59096
G1 X69.026 Y98.094 E29.60078
G1 X69.023 Y97.726 E29.61302
G1 X68.949 Y97.319 E29.62678
G1 X68.923 Y96.86 E29.64207
G1 X68.919 Y94.502 E29.7205
G1 X68.958 Y93.924 E29.73977
G1 X69.036 Y93.512 E29.75372
G1 X69.049 Y93.311 E29.76041
G1 X69.165 Y92.744 E29.77966
G1 X69.435 Y92.033 E29.80496
G1 X69.482 Y91.936 E29.80854
G1 X69.743 Y91.323 E29.8307
G1 X69.745 Y82.067 E30.13856
G1 X69.662 Y81.798 E30.14792
G1 X69.569 Y81.226 E30.1672
G1 X69.551 Y80.841 E30.18002
G1 X69.543 Y52.522 E31.12191
G1 X69.364 Y52.113 E31.13676
G1 X69.169 Y51.568 E31.15601
G1 X69.05 Y51.001 E31.17528
G1 X69.039 Y50.84 E31.18065
G1 X68.94 Y50.263 E31.20012
G1 X68.918 Y49.826 E31.21467
G1 X68.923 Y47.468 E31.2931
G1 X68.964 Y46.89 E31.31237
G1 X69.022 Y46.593 E31.32244
G1 X69.025 Y46.225 E31.33468
G1 X69.069 Y45.647 E31.35396
G1 X69.192 Y45.081 E31.37322
G1 X69.392 Y44.538 E31.39247
G1 X69.535 Y44.248 E31.40322
G1 X70.074 Y43.257 E31.44074
G0 F6000 X70.426 Y43.448
G1 F1200 X70.762 Y42.935 E31.46114
G1 X70.852 Y42.819 E31.46602
G1 X71.101 Y42.529 E31.47874
G1 X71.432 Y42.181 E31.49471
G1 X71.839 Y41.81 E31.51303
G1 X72.13 Y41.603 E31.52491
G1 X72.561 Y41.326 E31.54195
G1 X72.825 Y41.172 E31.55211
G1 X73.564 Y40.777 E31.57998
G1 X74.067 Y40.553 E31.5983
G1 X74.598 Y40.404 E31.61664
G1 X75.355 Y40.328 E31.64194
G1 X75.74 Y40.328 E31.65475
G1 X76.195 Y40.25 E31.6701
G1 X76.558 Y40.233 E31.68219
G1 X79.107 Y40.233 E31.76697
G1 X79.657 Y40.273 E31.78531
G1 X80.195 Y40.392 E31.80364
G1 X81.768 Y40.862 E31.85824
G1 X129.278 Y40.853 E33.43843
G1 X153.699 Y40.857 E34.25068
G1 X154.902 Y40.492 E34.29249
G1 X155.439 Y40.37 E34.3108
G1 X155.587 Y40.359 E34.31574
G1 X155.652 Y40.343 E34.31797
G1 X156.195 Y40.25 E34.33629
G1 X156.558 Y40.233 E34.34838
G1 X159.109 Y40.233 E34.43322
G1 X159.659 Y40.273 E34.45156
G1 X160.168 Y40.383 E34.46888
G1 X160.53 Y40.488 E34.48142
G1 X160.585 Y40.494 E34.48326
G1 X161.295 Y40.641 E34.50738
G1 X161.719 Y40.772 E34.52214
